;Electronic Screw Driver
;Printer name: Creality Ender 3 Pro
;TIME:3466
;Print time: 57m:46s
;Extruder 1 material used: 2440mm
;Extruder 1 material name: 
;Extruder 1 filament diameter: 1.75mm
;Extruder 1 nozzle diameter: 0.4mm
;Extruder 1 offset x: 0mm
;Extruder 1 offset y: 0mm
;Extruder 1 offset z: 0mm
;Extruder 1 max temp: 200
;Bed temp: 70
;Layer count: 66
;Width: 220mm
;Depth: 220mm
;Height: 250mm
;Center x: 110mm
;Center y: 110mm
;Center z: 0mm
;Count of bodies: 5
;Fusion version: 2.0.19440
G21
;--------------------------------
;Selected Profile: PLA Direct Drive
;--------------------------------
;Selected Printer: Creality, Ender 3 Pro
;--------------------------------
T0
M140 S70
M104 S200 T0
M105
M190 S70
M105
M109 S200 T0
G0 F7200
G90
M83
;Reset multiplier
M220 S100
M221 S100
G28
G1 Z10 F236
G92 E0
G0 X10 Y10 Z10 F7200
G92 E0
;--------------------------------
;Part 1
;LAYER_COUNT:66
;LAYER:1
M107
;rapid-leaky
G0 X20 Y20.5 Z0.2 F7200
;bead-prime
G1 X120 F720 E8.315
G1 F2100 E-0.5
;rapid-dry
G0 Z0.4 F7200
G0 X152.258 Y80.533 F7200
G0 Z0.2 F7200
G1 F2100 E0.5
;bead-support
G1 X156.975 Y85.25 F1320 E0.222
G1 X152.258 Y89.967 E0.222
G1 X150.45 Y88.159 E0.085
G1 Y82.341 E0.193
G1 X152.258 Y80.533 E0.085
G1 F2100 E-0.5
G0 X152.965 Y81.24 F2400
G0 X152.258 Y80.533 F2400
;rapid-dry
G0 Y79.967 F7200
G1 F2100 E0.5
;bead-skirt/brim
G1 X157.541 Y85.25 F960 E0.249
G1 X152.258 Y90.533 E0.248
G1 X150.2 Y88.475 E0.097
G1 Y94.185 E0.19
G1 X69.8 E2.674
G1 Y81.315 E0.428
G1 X150.2 E2.674
G1 Y82.025 E0.024
G1 X152.258 Y79.967 E0.097
;rapid-leaky
G0 Y79.401 F7200
;bead-skirt/brim
G1 X158.107 Y85.25 F960 E0.275
G1 X152.258 Y91.099 E0.275
G1 X150.6 Y89.441 E0.078
G1 Y94.585 E0.171
G1 X69.4 E2.701
G1 Y80.915 E0.454
G1 X150.6 E2.701
G1 Y81.06 E0.005
G1 X152.258 Y79.401 E0.078
;rapid-leaky
G0 Y78.836 F7200
;bead-skirt/brim
G1 X158.672 Y85.25 F960 E0.302
G1 X152.258 Y91.664 E0.301
G1 X151 Y90.406 E0.06
G1 Y94.985 E0.152
G1 X69 E2.727
G1 Y80.515 E0.481
G1 X150.579 E2.714
G1 X152.258 Y78.836 E0.079
;rapid-leaky
G0 Y78.27 F7200
;bead-skirt/brim
G1 X159.238 Y85.25 F960 E0.328
G1 X152.258 Y92.23 E0.328
G1 X151.4 Y91.372 E0.041
G1 Y95.385 E0.133
G1 X68.6 E2.754
G1 Y80.115 E0.508
G1 X150.413 E2.721
G1 X152.258 Y78.27 E0.087
;rapid-leaky
G0 Y77.704 F7200
;bead-skirt/brim
G1 X159.804 Y85.25 F960 E0.355
G1 X152.258 Y92.796 E0.355
G1 X151.8 Y92.338 E0.021
G1 Y95.785 E0.115
G1 X68.2 E2.781
G1 Y79.715 E0.534
G1 X150.247 E2.729
G1 X152.258 Y77.704 E0.095
;rapid-leaky
G0 Y77.139 F7200
;bead-skirt/brim
G1 X160.369 Y85.25 F960 E0.381
G1 X152.258 Y93.361 E0.382
G1 X152.2 Y93.303 E0.002
G1 Y96.185 E0.096
G1 X67.8 E2.807
G1 Y79.315 E0.561
G1 X150.082 E2.737
G1 X152.258 Y77.139 E0.102
;rapid-leaky
G0 Y76.573 F7200
;bead-skirt/brim
G1 X160.935 Y85.25 F960 E0.409
G1 X152.6 Y93.585 E0.392
G1 Y96.585 E0.099
G1 X67.4 E2.834
G1 Y78.915 E0.588
G1 X149.916 E2.744
G1 X152.258 Y76.573 E0.111
;rapid-leaky
G0 Y76.007 F7200
;bead-skirt/brim
G1 X161.501 Y85.25 F960 E0.434
G1 X153 Y93.751 E0.4
G1 Y96.985 E0.108
G1 X67 E2.86
G1 Y78.515 E0.614
G1 X149.75 E2.753
G1 X152.258 Y76.007 E0.118
;rapid-leaky
G0 Y75.442 F7200
;bead-skirt/brim
G1 X162.066 Y85.25 F960 E0.461
G1 X153.4 Y93.916 E0.408
G1 Y97.385 E0.115
G1 X78.055 E2.506
G1 X78.858 Y97.532 E0.027
G1 X79.514 Y97.738 E0.023
G1 X80.177 Y98.036 E0.024
G1 X80.798 Y98.412 E0.024
G1 X81.37 Y98.859 E0.024
G1 X81.891 Y99.38 E0.025
G1 X82.337 Y99.952 E0.024
G1 X82.723 Y100.587 E0.025
G1 X83.028 Y101.283 E0.025
G1 X83.232 Y101.937 E0.023
G1 X83.363 Y102.654 E0.024
G1 X83.4 Y103.278 E0.021
G1 Y114.222 E0.364
G1 X83.363 Y114.846 E0.021
G1 X83.231 Y115.565 E0.024
G1 X83.013 Y116.262 E0.024
G1 X82.714 Y116.927 E0.025
G1 X82.338 Y117.548 E0.024
G1 X81.891 Y118.12 E0.024
G1 X81.37 Y118.641 E0.024
G1 X80.798 Y119.088 E0.025
G1 X80.283 Y119.4 E0.02
G1 Y134.882 E0.514
G1 X77.219 E0.102
G1 X77.318 Y134.94 E0.004
G1 X77.287 Y141.115 E0.206
G1 X71.923 Y144.176 E0.205
G1 X66.59 Y141.061 E0.205
G1 X66.625 Y134.882 E0.206
G1 X66.6 E0.001
G1 Y118.35 E0.55
G1 X68.339 E0.057
G1 X68.109 Y118.12 E0.011
G1 X67.662 Y117.548 E0.024
G1 X67.279 Y116.915 E0.025
G1 X66.972 Y116.218 E0.025
G1 X66.768 Y115.561 E0.023
G1 X66.637 Y114.846 E0.024
G1 X66.6 Y114.222 E0.021
G1 X66.602 Y103.252 E0.365
G1 X66.637 Y102.656 E0.02
G1 X66.769 Y101.934 E0.024
G1 X66.987 Y101.24 E0.025
G1 X67.285 Y100.575 E0.024
G1 X67.662 Y99.952 E0.024
G1 X68.109 Y99.38 E0.024
G1 X68.63 Y98.859 E0.025
G1 X69.202 Y98.412 E0.024
G1 X69.835 Y98.028 E0.024
G1 X70.532 Y97.722 E0.026
G1 X71.189 Y97.518 E0.023
G1 X71.944 Y97.385 E0.025
G1 X66.6 E0.178
G1 Y78.115 E0.641
G1 X149.585 E2.76
G1 X152.258 Y75.442 E0.126
;rapid-leaky
G0 X162.632 Y85.25 F7200
;bead-skirt/brim
G1 X153.8 Y94.082 F960 E0.415
G1 Y97.602 E0.117
;rapid-leaky
G0 X153.485 Y97.785 F7200
;bead-skirt/brim
G1 X80.535 F960 E2.426
G1 X81.025 Y98.083 E0.02
G1 X81.636 Y98.559 E0.025
G1 X82.191 Y99.114 E0.026
G1 X82.667 Y99.725 E0.026
G1 X83.078 Y100.402 E0.027
G1 X83.403 Y101.143 E0.026
G1 X83.621 Y101.841 E0.025
G1 X83.76 Y102.606 E0.026
G1 X83.8 Y103.266 E0.022
G1 Y114.234 E0.364
G1 X83.76 Y114.894 E0.022
G1 X83.62 Y115.661 E0.026
G1 X83.388 Y116.404 E0.026
G1 X83.069 Y117.113 E0.026
G1 X82.667 Y117.775 E0.026
G1 X82.191 Y118.386 E0.026
G1 X81.636 Y118.941 E0.026
G1 X81.025 Y119.417 E0.025
G1 X80.683 Y119.625 E0.014
G1 Y135.282 E0.521
G1 X77.716 E0.098
G1 X77.686 Y141.348 E0.202
G1 X71.921 Y144.638 E0.221
G1 X66.189 Y141.29 E0.221
G1 X66.219 Y135.282 E0.199
G1 X66.2 E0.001
G1 Y117.95 E0.576
G1 X67.469 E0.043
G1 X67.333 Y117.775 E0.007
G1 X66.923 Y117.1 E0.026
G1 X66.597 Y116.359 E0.027
G1 X66.379 Y115.657 E0.025
G1 X66.24 Y114.894 E0.025
G1 X66.2 Y114.234 E0.022
G1 X66.202 Y103.24 E0.366
G1 X66.239 Y102.608 E0.021
G1 X66.38 Y101.838 E0.026
G1 X66.612 Y101.098 E0.026
G1 X66.93 Y100.389 E0.026
G1 X67.333 Y99.725 E0.026
G1 X67.809 Y99.114 E0.025
G1 X68.364 Y98.559 E0.027
G1 X68.975 Y98.083 E0.025
G1 X69.465 Y97.785 E0.019
G1 X66.2 E0.109
G1 Y77.715 E0.668
G1 X149.419 E2.767
G1 X152.258 Y74.876 E0.134
G1 X162.632 Y85.25 E0.488
;rapid-leaky
G0 X82.842 Y102.033 F7200
;bead-skirt/brim
G1 X82.965 Y102.702 F960 E0.023
G1 X83 Y103.29 E0.019
G1 Y114.21 E0.363
G1 X82.965 Y114.798 E0.02
G1 X82.842 Y115.469 E0.023
G1 X82.639 Y116.12 E0.022
G1 X82.36 Y116.741 E0.023
G1 X82.008 Y117.32 E0.022
G1 X81.591 Y117.855 E0.023
G1 X81.105 Y118.341 E0.023
G1 X80.57 Y118.758 E0.022
G1 X79.99 Y119.109 E0.023
G1 X79.883 Y119.158 E0.004
G1 Y134.482 E0.51
G1 X75.742 E0.137
G1 X76.916 Y135.168 E0.046
G1 X76.889 Y140.882 E0.19
G1 X71.925 Y143.714 E0.19
G1 X66.992 Y140.832 E0.19
G1 X67.02 Y135.118 E0.19
G1 X68.134 Y134.482 E0.042
G1 X67 E0.038
G1 Y118.75 E0.523
G1 X69.42 E0.081
G1 X68.895 Y118.341 E0.022
G1 X68.409 Y117.855 E0.023
G1 X67.992 Y117.32 E0.022
G1 X67.634 Y116.73 E0.023
G1 X67.347 Y116.078 E0.024
G1 X67.157 Y115.466 E0.021
G1 X67.035 Y114.798 E0.023
G1 X67 Y114.21 E0.02
G1 X67.002 Y103.264 E0.364
G1 X67.035 Y102.704 E0.018
G1 X67.158 Y102.03 E0.023
G1 X67.361 Y101.382 E0.023
G1 X67.64 Y100.761 E0.022
G1 X67.992 Y100.18 E0.023
G1 X68.409 Y99.645 E0.022
G1 X68.895 Y99.159 E0.023
G1 X69.43 Y98.742 E0.023
G1 X70.02 Y98.384 E0.023
G1 X70.672 Y98.097 E0.024
G1 X71.284 Y97.907 E0.021
G1 X71.952 Y97.785 E0.022
G1 X72.54 Y97.75 E0.02
G1 X77.46 E0.164
G1 X78.061 Y97.786 E0.02
G1 X78.76 Y97.92 E0.023
G1 X79.371 Y98.112 E0.022
G1 X79.991 Y98.391 E0.022
G1 X80.57 Y98.742 E0.023
G1 X81.105 Y99.159 E0.022
G1 X81.591 Y99.645 E0.023
G1 X82.008 Y100.18 E0.023
G1 X82.367 Y100.772 E0.023
G1 X82.653 Y101.423 E0.023
G1 X82.842 Y102.033 E0.022
;rapid-leaky
G0 X82.453 Y102.128 F7200
;bead-skirt/brim
G1 X82.567 Y102.75 F960 E0.021
G1 X82.6 Y103.302 E0.018
G1 Y114.198 E0.362
G1 X82.567 Y114.749 E0.019
G1 X82.453 Y115.373 E0.021
G1 X82.264 Y115.977 E0.021
G1 X82.005 Y116.554 E0.021
G1 X81.678 Y117.093 E0.021
G1 X81.291 Y117.589 E0.021
G1 X80.839 Y118.041 E0.021
G1 X80.343 Y118.428 E0.021
G1 X79.804 Y118.755 E0.021
G1 X79.227 Y119.014 E0.021
G1 X78.793 Y119.15 E0.015
G1 X79.483 E0.023
G1 Y134.082 E0.497
G1 X74.265 E0.173
G1 X76.515 Y135.397 E0.087
G1 X76.49 Y140.649 E0.175
G1 X71.928 Y143.252 E0.174
G1 X67.393 Y140.603 E0.175
G1 X67.418 Y135.351 E0.175
G1 X69.643 Y134.082 E0.085
G1 X67.4 E0.075
G1 Y119.15 E0.496
G1 X71.206 E0.127
G1 X70.771 Y119.013 E0.015
G1 X70.196 Y118.755 E0.021
G1 X69.657 Y118.428 E0.021
G1 X69.161 Y118.041 E0.021
G1 X68.709 Y117.589 E0.021
G1 X68.322 Y117.093 E0.021
G1 X67.99 Y116.545 E0.021
G1 X67.723 Y115.938 E0.022
G1 X67.546 Y115.37 E0.02
G1 X67.433 Y114.75 E0.021
G1 X67.4 Y114.198 E0.019
G1 X67.402 Y103.275 E0.363
G1 X67.433 Y102.752 E0.017
G1 X67.547 Y102.126 E0.021
G1 X67.736 Y101.524 E0.021
G1 X67.994 Y100.947 E0.021
G1 X68.322 Y100.407 E0.021
G1 X68.709 Y99.911 E0.021
G1 X69.161 Y99.459 E0.022
G1 X69.657 Y99.072 E0.021
G1 X70.205 Y98.74 E0.021
G1 X70.812 Y98.473 E0.022
G1 X71.38 Y98.296 E0.02
G1 X72.001 Y98.183 E0.021
G1 X72.552 Y98.15 E0.018
G1 X77.448 E0.163
G1 X78.011 Y98.184 E0.019
G1 X78.662 Y98.309 E0.022
G1 X79.229 Y98.487 E0.019
G1 X79.804 Y98.745 E0.021
G1 X80.343 Y99.072 E0.021
G1 X80.839 Y99.459 E0.021
G1 X81.291 Y99.911 E0.022
G1 X81.678 Y100.407 E0.021
G1 X82.011 Y100.956 E0.021
G1 X82.277 Y101.564 E0.022
G1 X82.453 Y102.128 E0.02
;rapid-leaky
G0 X82.064 Y102.224 F7200
;bead-skirt/brim
G1 X82.169 Y102.799 F960 E0.019
G1 X82.2 Y103.314 E0.017
G1 Y114.186 E0.362
G1 X82.169 Y114.701 E0.017
G1 X82.064 Y115.277 E0.019
G1 X81.89 Y115.835 E0.02
G1 X81.65 Y116.368 E0.019
G1 X81.348 Y116.865 E0.02
G1 X80.99 Y117.324 E0.019
G1 X80.574 Y117.74 E0.02
G1 X80.115 Y118.098 E0.019
G1 X79.618 Y118.4 E0.019
G1 X79.085 Y118.639 E0.02
G1 X78.518 Y118.817 E0.02
G1 X77.913 Y118.922 E0.02
G1 X77.435 Y118.95 E0.016
G1 X72.564 E0.162
G1 X72.039 Y118.919 E0.017
G1 X71.435 Y118.803 E0.021
G1 X70.913 Y118.639 E0.018
G1 X70.382 Y118.4 E0.019
G1 X69.885 Y118.098 E0.02
G1 X69.426 Y117.74 E0.019
G1 X69.01 Y117.324 E0.02
G1 X68.652 Y116.865 E0.019
G1 X68.345 Y116.36 E0.02
G1 X68.098 Y115.798 E0.02
G1 X67.936 Y115.275 E0.018
G1 X67.831 Y114.701 E0.02
G1 X67.8 Y114.186 E0.017
G1 X67.802 Y103.287 E0.362
G1 X67.831 Y102.8 E0.017
G1 X67.936 Y102.222 E0.019
G1 X68.111 Y101.666 E0.02
G1 X68.349 Y101.134 E0.019
G1 X68.652 Y100.635 E0.019
G1 X69.01 Y100.176 E0.02
G1 X69.426 Y99.76 E0.019
G1 X69.885 Y99.402 E0.02
G1 X70.39 Y99.095 E0.019
G1 X70.952 Y98.848 E0.021
G1 X71.475 Y98.686 E0.018
G1 X72.049 Y98.581 E0.019
G1 X72.564 Y98.55 E0.017
G1 X77.436 E0.163
G1 X77.961 Y98.582 E0.017
G1 X78.565 Y98.697 E0.02
G1 X79.087 Y98.861 E0.019
G1 X79.618 Y99.1 E0.019
G1 X80.115 Y99.402 E0.019
G1 X80.574 Y99.76 E0.02
G1 X80.99 Y100.176 E0.019
G1 X81.348 Y100.635 E0.02
G1 X81.655 Y101.141 E0.019
G1 X81.902 Y101.704 E0.021
G1 X82.064 Y102.224 E0.018
;rapid-leaky
G0 X81.675 Y102.32 F7200
;bead-skirt/brim
G1 X81.771 Y102.847 F960 E0.018
G1 X81.8 Y103.326 E0.016
G1 Y114.174 E0.36
G1 X81.771 Y114.653 E0.016
G1 X81.675 Y115.181 E0.018
G1 X81.515 Y115.693 E0.018
G1 X81.295 Y116.181 E0.018
G1 X81.018 Y116.638 E0.018
G1 X80.69 Y117.058 E0.017
G1 X80.308 Y117.44 E0.018
G1 X79.888 Y117.768 E0.018
G1 X79.431 Y118.045 E0.018
G1 X78.943 Y118.265 E0.018
G1 X78.423 Y118.427 E0.018
G1 X77.866 Y118.524 E0.019
G1 X77.423 Y118.55 E0.014
G1 X72.576 E0.162
G1 X72.089 Y118.521 E0.016
G1 X71.533 Y118.414 E0.019
G1 X71.056 Y118.264 E0.016
G1 X70.569 Y118.045 E0.018
G1 X70.112 Y117.768 E0.018
G1 X69.692 Y117.44 E0.018
G1 X69.31 Y117.058 E0.018
G1 X68.982 Y116.638 E0.017
G1 X68.701 Y116.175 E0.018
G1 X68.473 Y115.657 E0.019
G1 X68.325 Y115.179 E0.017
G1 X68.229 Y114.653 E0.018
G1 X68.2 Y114.174 E0.016
G1 X68.202 Y103.299 E0.361
G1 X68.229 Y102.848 E0.015
G1 X68.325 Y102.318 E0.018
G1 X68.485 Y101.808 E0.018
G1 X68.704 Y101.32 E0.018
G1 X68.982 Y100.862 E0.018
G1 X69.31 Y100.442 E0.017
G1 X69.692 Y100.06 E0.018
G1 X70.112 Y99.732 E0.018
G1 X70.575 Y99.451 E0.018
G1 X71.093 Y99.223 E0.019
G1 X71.571 Y99.075 E0.016
G1 X72.097 Y98.979 E0.018
G1 X72.576 Y98.95 E0.016
G1 X77.424 E0.161
G1 X77.911 Y98.979 E0.017
G1 X78.467 Y99.086 E0.018
G1 X78.944 Y99.236 E0.017
G1 X79.431 Y99.455 E0.018
G1 X79.888 Y99.732 E0.018
G1 X80.308 Y100.06 E0.017
G1 X80.69 Y100.442 E0.018
G1 X81.018 Y100.862 E0.018
G1 X81.3 Y101.326 E0.018
G1 X81.527 Y101.844 E0.019
G1 X81.675 Y102.32 E0.017
;rapid-leaky
G0 X81.286 Y102.416 F7200
;bead-skirt/brim
G1 X81.373 Y102.895 F960 E0.016
G1 X81.4 Y103.338 E0.014
G1 Y114.162 E0.36
G1 X81.373 Y114.605 E0.015
G1 X81.286 Y115.085 E0.016
G1 X81.14 Y115.551 E0.017
G1 X80.941 Y115.995 E0.016
G1 X80.688 Y116.41 E0.016
G1 X80.39 Y116.793 E0.016
G1 X80.043 Y117.14 E0.017
G1 X79.66 Y117.438 E0.016
G1 X79.245 Y117.691 E0.016
G1 X78.801 Y117.89 E0.016
G1 X78.329 Y118.038 E0.016
G1 X77.82 Y118.126 E0.018
G1 X77.411 Y118.15 E0.013
G1 X72.588 E0.161
G1 X72.139 Y118.123 E0.015
G1 X71.631 Y118.026 E0.017
G1 X71.198 Y117.89 E0.015
G1 X70.755 Y117.691 E0.016
G1 X70.34 Y117.438 E0.016
G1 X69.957 Y117.14 E0.016
G1 X69.61 Y116.793 E0.017
G1 X69.312 Y116.41 E0.016
G1 X69.056 Y115.99 E0.016
G1 X68.849 Y115.517 E0.017
G1 X68.714 Y115.084 E0.015
G1 X68.627 Y114.605 E0.017
G1 X68.6 Y114.162 E0.014
G1 X68.602 Y103.311 E0.361
G1 X68.626 Y102.895 E0.014
G1 X68.714 Y102.414 E0.016
G1 X68.86 Y101.951 E0.017
G1 X69.059 Y101.506 E0.016
G1 X69.312 Y101.09 E0.016
G1 X69.61 Y100.707 E0.016
G1 X69.957 Y100.36 E0.016
G1 X70.34 Y100.062 E0.017
G1 X70.76 Y99.806 E0.016
G1 X71.233 Y99.599 E0.017
G1 X71.666 Y99.464 E0.015
G1 X72.145 Y99.377 E0.016
G1 X72.588 Y99.35 E0.015
G1 X77.412 E0.161
G1 X77.861 Y99.377 E0.015
G1 X78.369 Y99.474 E0.017
G1 X78.802 Y99.61 E0.015
G1 X79.245 Y99.809 E0.016
G1 X79.66 Y100.062 E0.016
G1 X80.043 Y100.36 E0.016
G1 X80.39 Y100.707 E0.017
G1 X80.688 Y101.09 E0.016
G1 X80.944 Y101.511 E0.016
G1 X81.151 Y101.984 E0.017
G1 X81.286 Y102.416 E0.015
;rapid-leaky
G0 X80.897 Y102.512 F7200
;bead-skirt/brim
G1 X80.976 Y102.943 F960 E0.015
G1 X81 Y103.35 E0.014
G1 Y114.15 E0.359
G1 X80.976 Y114.557 E0.013
G1 X80.897 Y114.989 E0.015
G1 X80.766 Y115.409 E0.015
G1 X80.586 Y115.808 E0.014
G1 X80.359 Y116.183 E0.015
G1 X80.09 Y116.528 E0.014
G1 X79.778 Y116.84 E0.015
G1 X79.433 Y117.109 E0.014
G1 X79.058 Y117.336 E0.015
G1 X78.659 Y117.516 E0.015
G1 X78.235 Y117.648 E0.014
G1 X77.774 Y117.728 E0.016
G1 X77.399 Y117.75 E0.012
G1 X72.6 E0.16
G1 X72.188 Y117.725 E0.014
G1 X71.729 Y117.637 E0.015
G1 X71.341 Y117.515 E0.014
G1 X70.942 Y117.336 E0.014
G1 X70.567 Y117.109 E0.015
G1 X70.222 Y116.84 E0.015
G1 X69.91 Y116.528 E0.014
G1 X69.641 Y116.183 E0.015
G1 X69.412 Y115.805 E0.014
G1 X69.224 Y115.377 E0.016
G1 X69.103 Y114.988 E0.014
G1 X69.024 Y114.557 E0.014
G1 X69 Y114.15 E0.014
G1 X69.002 Y103.323 E0.36
G1 X69.024 Y102.943 E0.012
G1 X69.103 Y102.511 E0.015
G1 X69.234 Y102.093 E0.015
G1 X69.414 Y101.692 E0.014
G1 X69.641 Y101.317 E0.015
G1 X69.91 Y100.972 E0.014
G1 X70.222 Y100.66 E0.015
G1 X70.567 Y100.391 E0.015
G1 X70.945 Y100.162 E0.014
G1 X71.373 Y99.974 E0.016
G1 X71.762 Y99.853 E0.013
G1 X72.193 Y99.774 E0.015
G1 X72.6 Y99.75 E0.014
G1 X77.4 E0.159
G1 X77.812 Y99.775 E0.014
G1 X78.271 Y99.863 E0.015
G1 X78.659 Y99.985 E0.014
G1 X79.058 Y100.164 E0.015
G1 X79.433 Y100.391 E0.014
G1 X79.778 Y100.66 E0.015
G1 X80.09 Y100.972 E0.014
G1 X80.359 Y101.317 E0.015
G1 X80.588 Y101.696 E0.015
G1 X80.776 Y102.124 E0.015
G1 X80.897 Y102.512 E0.014
;rapid-leaky
G0 X80.508 Y102.607 F7200
;bead-skirt/brim
G1 X80.578 Y102.991 F960 E0.013
G1 X80.6 Y103.362 E0.012
G1 Y114.138 E0.358
G1 X80.578 Y114.509 E0.013
G1 X80.508 Y114.893 E0.013
G1 X80.391 Y115.266 E0.013
G1 X80.231 Y115.622 E0.013
G1 X80.029 Y115.955 E0.013
G1 X79.789 Y116.262 E0.013
G1 X79.512 Y116.539 E0.013
G1 X79.205 Y116.779 E0.013
G1 X78.872 Y116.981 E0.013
G1 X78.516 Y117.141 E0.013
G1 X78.14 Y117.258 E0.013
G1 X77.728 Y117.33 E0.014
G1 X77.388 Y117.35 E0.011
G1 X72.612 E0.159
G1 X72.238 Y117.328 E0.012
G1 X71.827 Y117.249 E0.014
G1 X71.483 Y117.141 E0.012
G1 X71.128 Y116.981 E0.013
G1 X70.795 Y116.779 E0.013
G1 X70.488 Y116.539 E0.013
G1 X70.211 Y116.262 E0.013
G1 X69.971 Y115.955 E0.013
G1 X69.768 Y115.62 E0.013
G1 X69.599 Y115.236 E0.014
G1 X69.492 Y114.892 E0.012
G1 X69.422 Y114.509 E0.013
G1 X69.4 Y114.138 E0.012
G1 X69.402 Y103.334 E0.36
G1 X69.422 Y102.991 E0.011
G1 X69.492 Y102.607 E0.013
G1 X69.609 Y102.235 E0.013
G1 X69.769 Y101.879 E0.013
G1 X69.971 Y101.545 E0.013
G1 X70.211 Y101.238 E0.013
G1 X70.488 Y100.961 E0.013
G1 X70.795 Y100.721 E0.013
G1 X71.13 Y100.518 E0.013
G1 X71.514 Y100.349 E0.014
G1 X71.858 Y100.242 E0.012
G1 X72.241 Y100.172 E0.013
G1 X72.612 Y100.15 E0.012
G1 X77.388 E0.159
G1 X77.762 Y100.172 E0.012
G1 X78.173 Y100.251 E0.014
G1 X78.517 Y100.359 E0.012
G1 X78.872 Y100.519 E0.013
G1 X79.205 Y100.721 E0.013
G1 X79.512 Y100.961 E0.013
G1 X79.789 Y101.238 E0.013
G1 X80.029 Y101.545 E0.013
G1 X80.233 Y101.881 E0.013
G1 X80.401 Y102.265 E0.014
G1 X80.508 Y102.607 E0.012
;rapid-leaky
G0 X80.119 Y102.703 F7200
;bead-skirt/brim
G1 X80.18 Y103.039 F960 E0.012
G1 X80.2 Y103.374 E0.011
G1 Y114.126 E0.357
G1 X80.18 Y114.461 E0.011
G1 X80.119 Y114.797 E0.012
G1 X80.016 Y115.124 E0.011
G1 X79.876 Y115.435 E0.012
G1 X79.699 Y115.728 E0.011
G1 X79.489 Y115.997 E0.011
G1 X79.247 Y116.239 E0.012
G1 X78.978 Y116.449 E0.011
G1 X78.685 Y116.626 E0.011
G1 X78.374 Y116.766 E0.012
G1 X78.046 Y116.869 E0.011
G1 X77.682 Y116.932 E0.012
G1 X77.376 Y116.95 E0.011
G1 X72.624 E0.158
G1 X72.288 Y116.93 E0.011
G1 X71.925 Y116.86 E0.012
G1 X71.626 Y116.766 E0.011
G1 X71.315 Y116.626 E0.011
G1 X71.022 Y116.449 E0.011
G1 X70.753 Y116.239 E0.012
G1 X70.511 Y115.997 E0.011
G1 X70.301 Y115.728 E0.011
G1 X70.123 Y115.435 E0.012
G1 X69.974 Y115.096 E0.012
G1 X69.881 Y114.797 E0.011
G1 X69.82 Y114.461 E0.011
G1 X69.8 Y114.126 E0.011
G1 X69.802 Y103.346 E0.359
G1 X69.82 Y103.039 E0.01
G1 X69.881 Y102.703 E0.011
G1 X69.984 Y102.377 E0.012
G1 X70.124 Y102.065 E0.011
G1 X70.301 Y101.772 E0.011
G1 X70.511 Y101.503 E0.012
G1 X70.753 Y101.261 E0.011
G1 X71.022 Y101.051 E0.011
G1 X71.315 Y100.873 E0.012
G1 X71.654 Y100.724 E0.012
G1 X71.953 Y100.631 E0.011
G1 X72.289 Y100.57 E0.011
G1 X72.624 Y100.55 E0.011
G1 X77.376 E0.158
G1 X77.712 Y100.57 E0.011
G1 X78.075 Y100.64 E0.013
G1 X78.374 Y100.734 E0.01
G1 X78.685 Y100.874 E0.011
G1 X78.978 Y101.051 E0.012
G1 X79.247 Y101.261 E0.011
G1 X79.489 Y101.503 E0.012
G1 X79.699 Y101.772 E0.011
G1 X79.877 Y102.066 E0.011
G1 X80.026 Y102.405 E0.013
G1 X80.119 Y102.703 E0.01
;rapid-leaky
G0 X79.083 Y119.55 F7200
;bead-skirt/brim
G1 Y133.682 F960 E0.47
G1 X72.788 E0.209
G1 X76.114 Y135.626 E0.129
G1 X76.091 Y140.416 E0.159
G1 X71.93 Y142.79 E0.159
G1 X67.794 Y140.374 E0.16
G1 X67.817 Y135.584 E0.159
G1 X71.151 Y133.682 E0.128
G1 X67.8 E0.111
G1 Y119.55 E0.47
G1 X79.083 E0.375
;rapid-leaky
G0 X78.683 Y119.95 F7200
;bead-skirt/brim
G1 Y126.282 F960 E0.211
G1 X68.2 E0.349
G1 Y119.95 E0.21
G1 X78.683 E0.349
;rapid-leaky
G0 X78.283 Y120.35 F7200
;bead-skirt/brim
G1 Y125.882 F960 E0.184
G1 X68.6 E0.322
G1 Y120.35 E0.184
G1 X78.283 E0.322
;rapid-leaky
G0 X77.883 Y120.75 F7200
;bead-skirt/brim
G1 Y125.482 F960 E0.157
G1 X69 E0.296
G1 Y120.75 E0.157
G1 X77.883 E0.296
;rapid-leaky
G0 X77.483 Y121.15 F7200
;bead-skirt/brim
G1 Y125.082 F960 E0.13
G1 X69.4 E0.269
G1 Y121.15 E0.131
G1 X77.483 E0.269
;rapid-leaky
G0 X77.083 Y121.55 F7200
;bead-skirt/brim
G1 Y124.682 F960 E0.104
G1 X69.8 E0.242
G1 Y121.55 E0.104
G1 X77.083 E0.243
;rapid-leaky
G0 X78.683 Y126.95 F7200
;bead-skirt/brim
G1 Y133.282 F960 E0.21
G1 X68.2 E0.349
G1 Y126.95 E0.211
G1 X78.683 E0.348
;rapid-leaky
G0 X78.283 Y127.35 F7200
;bead-skirt/brim
G1 Y132.882 F960 E0.184
G1 X68.6 E0.322
G1 Y127.35 E0.184
G1 X78.283 E0.322
;rapid-leaky
G0 X77.883 Y127.75 F7200
;bead-skirt/brim
G1 Y132.482 F960 E0.158
G1 X69 E0.295
G1 Y127.75 E0.158
G1 X77.883 E0.295
;rapid-leaky
G0 X77.483 Y128.15 F7200
;bead-skirt/brim
G1 Y132.082 F960 E0.131
G1 X69.4 E0.269
G1 Y128.15 E0.13
G1 X77.483 E0.269
;rapid-leaky
G0 X77.083 Y128.55 F7200
;bead-skirt/brim
G1 Y131.682 F960 E0.104
G1 X69.8 E0.243
G1 Y128.55 E0.104
G1 X77.083 E0.242
;rapid-leaky
G0 X71.977 Y133.672 F7200
;bead-skirt/brim
G1 X75.713 Y135.855 F960 E0.144
G1 X75.692 Y140.183 E0.144
G1 X71.932 Y142.328 E0.144
G1 X68.195 Y140.145 E0.144
G1 X68.216 Y135.817 E0.144
G1 X71.977 Y133.672 E0.144
;rapid-leaky
G0 X71.975 Y134.133 F7200
;bead-skirt/brim
G1 X75.312 Y136.084 F960 E0.128
G1 X75.293 Y139.95 E0.129
G1 X71.935 Y141.867 E0.129
G1 X68.596 Y139.916 E0.128
G1 X68.615 Y136.05 E0.129
G1 X71.975 Y134.133 E0.128
;rapid-leaky
G0 X71.972 Y134.595 F7200
;bead-skirt/brim
G1 X74.911 Y136.313 F960 E0.114
G1 X74.894 Y139.717 E0.113
G1 X71.937 Y141.405 E0.113
G1 X68.997 Y139.687 E0.113
G1 X69.014 Y136.283 E0.114
G1 X71.972 Y134.595 E0.113
;rapid-leaky
G0 X71.97 Y135.057 F7200
;bead-skirt/brim
G1 X74.51 Y136.542 F960 E0.098
G1 X74.495 Y139.484 E0.098
G1 X71.939 Y140.943 E0.098
G1 X69.398 Y139.458 E0.097
G1 X69.413 Y136.516 E0.098
G1 X71.97 Y135.057 E0.098
;rapid-leaky
G0 X71.967 Y135.519 F7200
;bead-skirt/brim
G1 X74.109 Y136.771 F960 E0.083
G1 X74.096 Y139.251 E0.082
G1 X71.942 Y140.481 E0.083
G1 X69.799 Y139.229 E0.082
G1 X69.812 Y136.749 E0.083
G1 X71.967 Y135.519 E0.082
G1 F2100 E-0.5
;rapid-dry
G0 X73.427 Y137.15 F7200
G1 F2100 E0.5
;bead-perimeter_outer
G1 X73.271 Y136.924 F720 E0.009
G1 X73.075 Y136.72 E0.01
G1 X72.863 Y136.562 E0.009
G1 X72.62 Y136.435 E0.009
G1 X72.361 Y136.349 E0.009
G1 X72.091 Y136.305 E0.009
G1 X71.808 Y136.306 E0.009
G1 X71.547 Y136.349 E0.009
G1 X71.287 Y136.435 E0.009
G1 X71.046 Y136.562 E0.009
G1 X70.827 Y136.727 E0.009
G1 X70.636 Y136.924 E0.01
G1 X70.477 Y137.158 E0.009
G1 X70.364 Y137.397 E0.009
G1 X70.288 Y137.66 E0.009
G1 X70.254 Y137.941 E0.009
G1 X70.266 Y138.205 E0.009
G1 X70.32 Y138.473 E0.009
G1 X70.418 Y138.729 E0.009
G1 X70.555 Y138.966 E0.009
G1 X70.727 Y139.178 E0.009
G1 X70.933 Y139.36 E0.01
G1 X71.172 Y139.51 E0.009
G1 X71.415 Y139.613 E0.009
G1 X71.682 Y139.679 E0.009
G1 X71.954 Y139.701 E0.009
G1 X72.237 Y139.677 E0.009
G1 X72.493 Y139.613 E0.009
G1 X72.744 Y139.506 E0.009
G1 X72.975 Y139.359 E0.009
G1 X73.181 Y139.178 E0.009
G1 X73.354 Y138.966 E0.01
G1 X73.49 Y138.729 E0.009
G1 X73.591 Y138.461 E0.009
G1 X73.644 Y138.183 E0.01
G1 X73.653 Y137.925 E0.008
G1 X73.624 Y137.676 E0.009
G1 X73.545 Y137.397 E0.009
G1 X73.427 Y137.15 E0.009
G1 F2100 E-0.5
;rapid-dry
G0 X73.708 Y136.999 F7200
G1 F2100 E0.5
;bead-perimeter_outer
G1 X73.698 Y139.019 F720 E0.067
G1 X71.944 Y140.019 E0.068
G1 X70.201 Y139.001 E0.067
G1 X70.21 Y136.982 E0.067
G1 X71.965 Y135.981 E0.067
G1 X73.708 Y136.999 E0.067
G1 F2100 E-0.5
;rapid-dry
G0 Z0.4 F7200
G0 X76.683 Y128.95 F7200
G0 Z0.2 F7200
G1 F2100 E0.5
;bead-perimeter_outer
G1 Y131.282 F720 E0.078
G1 X70.2 E0.215
G1 Y128.95 E0.078
G1 X76.683 E0.216
;rapid-leaky
G0 X76.323 Y129.31 F7200
;bead-perimeter_inner
G1 Y130.922 F960 E0.053
G1 X70.56 E0.192
G1 Y129.31 E0.054
G1 X76.323 E0.191
G1 F2100 E-0.5
;rapid-dry
G0 Z0.4 F7200
G0 X76.683 Y121.95 F7200
G0 Z0.2 F7200
G1 F2100 E0.5
;bead-perimeter_outer
G1 Y124.282 F720 E0.078
G1 X70.2 E0.215
G1 Y121.95 E0.078
G1 X76.683 E0.216
;rapid-leaky
G0 X76.323 Y122.31 F7200
;bead-perimeter_inner
G1 Y123.922 F960 E0.053
G1 X70.56 E0.192
G1 Y122.31 E0.053
G1 X76.323 E0.192
G1 F2100 E-0.5
;rapid-dry
G0 Z0.4 F7200
G0 X75.786 Y111.237 F7200
G0 Z0.2 F7200
G1 F2100 E0.5
;bead-perimeter_outer
G1 X75.728 Y111.137 F720 E0.004
G1 X75.636 Y111.057 E0.004
G1 X75.504 Y111.016 E0.005
G1 X75.361 Y111.033 E0.004
G1 X75.252 Y111.096 E0.005
G1 X75.167 Y111.204 E0.004
G1 X75.133 Y111.346 E0.005
G1 X75.154 Y111.466 E0.004
G1 X75.214 Y111.571 E0.004
G1 X75.324 Y111.655 E0.005
G1 X75.463 Y111.689 E0.005
G1 X75.585 Y111.668 E0.004
G1 X75.691 Y111.607 E0.004
G1 X75.774 Y111.497 E0.004
G1 X75.807 Y111.359 E0.005
G1 X75.786 Y111.237 E0.004
G1 F2100 E-0.5
;rapid-dry
G0 X74.683 Y111.235 F7200
G1 F2100 E0.5
;bead-perimeter_outer
G1 X74.626 Y111.137 F720 E0.004
G1 X74.534 Y111.057 E0.004
G1 X74.402 Y111.016 E0.005
G1 X74.259 Y111.033 E0.004
G1 X74.15 Y111.096 E0.005
G1 X74.065 Y111.204 E0.004
G1 X74.031 Y111.346 E0.005
G1 X74.052 Y111.466 E0.004
G1 X74.112 Y111.571 E0.004
G1 X74.222 Y111.655 E0.005
G1 X74.361 Y111.689 E0.004
G1 X74.483 Y111.668 E0.005
G1 X74.585 Y111.61 E0.003
G1 X74.665 Y111.513 E0.005
G1 X74.707 Y111.359 E0.005
G1 X74.683 Y111.235 E0.004
G1 F2100 E-0.5
;rapid-dry
G0 X71.012 Y108.744 F7200
G1 F2100 E0.5
;bead-perimeter_outer
G1 X70.99 Y108.662 F720 E0.003
G1 X70.924 Y108.545 E0.004
G1 X70.803 Y108.45 E0.005
G1 X70.691 Y108.413 E0.004
G1 X70.606 Y108.405 E0.003
G1 X70.478 Y108.428 E0.005
G1 X70.365 Y108.492 E0.004
G1 X70.302 Y108.555 E0.003
G1 X70.236 Y108.668 E0.004
G1 X70.212 Y108.807 E0.005
G1 X70.236 Y108.945 E0.005
G1 X70.307 Y109.065 E0.004
G1 X70.408 Y109.151 E0.005
G1 X70.487 Y109.186 E0.003
G1 X70.615 Y109.211 E0.004
G1 X70.754 Y109.184 E0.005
G1 X70.873 Y109.117 E0.004
G1 X70.967 Y109.006 E0.005
G1 X71.014 Y108.862 E0.005
G1 X71.012 Y108.744 E0.004
G1 F2100 E-0.5
;rapid-dry
G0 Z0.4 F7200
G0 X75.829 Y106.21 F7200
G0 Z0.2 F7200
G1 F2100 E0.5
;bead-perimeter_outer
G1 X75.766 Y106.101 F720 E0.004
G1 X75.663 Y106.013 E0.005
G1 X75.497 Y105.969 E0.005
G1 X75.364 Y105.993 E0.005
G1 X75.257 Y106.055 E0.004
G1 X75.174 Y106.154 E0.004
G1 X75.127 Y106.292 E0.005
G1 X75.146 Y106.451 E0.005
G1 X75.215 Y106.573 E0.005
G1 X75.294 Y106.628 E0.003
G1 X75.201 Y106.584 E0.004
G1 X75.062 Y106.547 E0.004
G1 X74.919 Y106.534 E0.005
G1 X74.774 Y106.548 E0.005
G1 X74.574 Y106.614 E0.007
G1 X74.688 Y106.466 E0.006
G1 X74.712 Y106.333 E0.005
G1 X74.689 Y106.208 E0.004
G1 X74.627 Y106.101 E0.004
G1 X74.524 Y106.013 E0.005
G1 X74.358 Y105.969 E0.005
G1 X74.227 Y105.993 E0.005
G1 X74.118 Y106.055 E0.004
G1 X74.035 Y106.154 E0.004
G1 X73.988 Y106.292 E0.005
G1 X74.007 Y106.451 E0.005
G1 X74.072 Y106.565 E0.005
G1 X74.175 Y106.651 E0.004
G1 X74.341 Y106.697 E0.006
G1 X74.468 Y106.674 E0.004
G1 X74.391 Y106.727 E0.003
G1 X74.29 Y106.828 E0.005
G1 X74.208 Y106.946 E0.005
G1 X74.147 Y107.075 E0.005
G1 X74.11 Y107.214 E0.004
G1 X74.098 Y107.347 E0.005
G1 Y110.238 E0.096
G1 X74.11 Y110.372 E0.005
G1 X74.147 Y110.511 E0.004
G1 X74.208 Y110.641 E0.005
G1 X74.29 Y110.757 E0.005
G1 X74.391 Y110.859 E0.005
G1 X74.509 Y110.941 E0.004
G1 X74.648 Y111.005 E0.005
G1 X74.777 Y111.039 E0.005
G1 X74.919 Y111.051 E0.005
G1 X75.061 Y111.039 E0.004
G1 X75.201 Y111.002 E0.005
G1 X75.331 Y110.941 E0.005
G1 X75.448 Y110.858 E0.005
G1 X75.555 Y110.748 E0.005
G1 X75.631 Y110.641 E0.004
G1 X75.692 Y110.511 E0.005
G1 X75.729 Y110.371 E0.005
G1 X75.74 Y110.237 E0.004
G1 Y107.348 E0.096
G1 X75.729 Y107.213 E0.005
G1 X75.687 Y107.065 E0.005
G1 X75.631 Y106.945 E0.004
G1 X75.549 Y106.828 E0.005
G1 X75.371 Y106.674 E0.008
G1 X75.489 Y106.695 E0.004
G1 X75.614 Y106.672 E0.004
G1 X75.73 Y106.605 E0.005
G1 X75.828 Y106.465 E0.005
G1 X75.85 Y106.333 E0.005
G1 X75.829 Y106.21 E0.004
;rapid-leaky
G0 X76.174 Y106.086 F7200
;bead-perimeter_inner
G1 X76.046 Y105.867 F960 E0.008
G1 X75.835 Y105.687 E0.009
G1 X75.512 Y105.601 E0.012
G1 X75.239 Y105.65 E0.009
G1 X75.022 Y105.775 E0.008
G1 X74.922 Y105.894 E0.005
G1 X74.696 Y105.687 E0.011
G1 X74.372 Y105.6 E0.011
G1 X74.103 Y105.65 E0.009
G1 X73.884 Y105.773 E0.008
G1 X73.715 Y105.975 E0.009
G1 X73.621 Y106.254 E0.01
G1 X73.659 Y106.565 E0.01
G1 X73.79 Y106.799 E0.009
G1 X73.854 Y106.852 E0.003
G1 X73.808 Y106.951 E0.003
G1 X73.755 Y107.15 E0.007
G1 X73.738 Y107.33 E0.006
G1 Y110.255 E0.098
G1 X73.755 Y110.436 E0.006
G1 X73.808 Y110.635 E0.006
G1 X73.901 Y110.83 E0.008
G1 X73.733 Y111.043 E0.009
G1 X73.663 Y111.336 E0.01
G1 X73.709 Y111.591 E0.008
G1 X73.836 Y111.812 E0.009
G1 X74.062 Y111.987 E0.009
G1 X74.349 Y112.057 E0.01
G1 X74.607 Y112.012 E0.009
G1 X74.82 Y111.889 E0.008
G1 X74.916 Y111.774 E0.005
G1 X74.938 Y111.812 E0.001
G1 X75.164 Y111.987 E0.01
G1 X75.452 Y112.057 E0.01
G1 X75.709 Y112.012 E0.009
G1 X75.935 Y111.882 E0.008
G1 X76.106 Y111.654 E0.01
G1 X76.175 Y111.371 E0.009
G1 X76.13 Y111.113 E0.009
G1 X76.01 Y110.903 E0.008
G1 X75.932 Y110.837 E0.003
G1 X76.031 Y110.635 E0.008
G1 X76.085 Y110.433 E0.007
G1 X76.1 Y110.252 E0.006
G1 Y107.333 E0.097
G1 X76.085 Y107.149 E0.006
G1 X76.025 Y106.938 E0.007
G1 X75.989 Y106.862 E0.003
G1 X76.169 Y106.605 E0.011
G1 X76.215 Y106.333 E0.009
G1 X76.174 Y106.086 E0.008
G1 F2100 E-0.5
;rapid-dry
G0 X79.602 Y108.666 F7200
G1 F2100 E0.5
;bead-perimeter_outer
G1 X79.521 Y108.535 F720 E0.005
G1 X79.41 Y108.45 E0.005
G1 X79.299 Y108.413 E0.004
G1 X79.214 Y108.405 E0.003
G1 X79.086 Y108.428 E0.004
G1 X78.973 Y108.492 E0.004
G1 X78.91 Y108.555 E0.003
G1 X78.844 Y108.668 E0.005
G1 X78.82 Y108.807 E0.004
G1 X78.844 Y108.945 E0.005
G1 X78.914 Y109.065 E0.005
G1 X79.022 Y109.156 E0.004
G1 X79.143 Y109.199 E0.005
G1 X79.23 Y109.209 E0.003
G1 X79.362 Y109.184 E0.004
G1 X79.482 Y109.116 E0.005
G1 X79.566 Y109.015 E0.004
G1 X79.603 Y108.936 E0.003
G1 X79.626 Y108.807 E0.004
G1 X79.602 Y108.666 E0.005
G1 F2100 E-0.5
;rapid-dry
G0 Z0.4 F7200
G0 X75.374 Y101.36 F7200
G0 Z0.2 F7200
G1 F2100 E0.5
;bead-perimeter_outer
G1 X75.35 Y101.222 F720 E0.005
G1 X75.28 Y101.102 E0.004
G1 X75.18 Y101.017 E0.005
G1 X75.1 Y100.98 E0.003
G1 X74.971 Y100.957 E0.004
G1 X74.832 Y100.981 E0.005
G1 X74.711 Y101.052 E0.004
G1 X74.628 Y101.152 E0.005
G1 X74.591 Y101.231 E0.002
G1 X74.568 Y101.36 E0.005
G1 X74.592 Y101.499 E0.005
G1 X74.658 Y101.612 E0.004
G1 X74.719 Y101.673 E0.003
G1 X74.832 Y101.739 E0.004
G1 X74.971 Y101.763 E0.005
G1 X75.111 Y101.738 E0.005
G1 X75.24 Y101.66 E0.005
G1 X75.314 Y101.568 E0.003
G1 X75.351 Y101.491 E0.003
G1 X75.374 Y101.36 E0.005
G1 F2100 E-0.5
;rapid-dry
G0 X79.782 Y103.087 F7200
G1 F2100 E0.5
;bead-perimeter_outer
G1 X79.8 Y103.386 F720 E0.01
G1 Y114.114 E0.357
G1 X79.782 Y114.413 E0.009
G1 X79.729 Y114.701 E0.01
G1 X79.642 Y114.982 E0.01
G1 X79.522 Y115.249 E0.01
G1 X79.369 Y115.5 E0.01
G1 X79.189 Y115.731 E0.009
G1 X78.981 Y115.939 E0.01
G1 X78.75 Y116.119 E0.01
G1 X78.499 Y116.272 E0.01
G1 X78.232 Y116.392 E0.009
G1 X77.952 Y116.479 E0.01
G1 X77.636 Y116.534 E0.011
G1 X77.364 Y116.55 E0.009
G1 X75.206 E0.072
G1 X75.32 Y116.432 E0.005
G1 X75.357 Y116.353 E0.003
G1 X75.38 Y116.224 E0.004
G1 X75.356 Y116.085 E0.005
G1 X75.29 Y115.972 E0.004
G1 X75.229 Y115.911 E0.003
G1 X75.116 Y115.845 E0.005
G1 X74.977 Y115.821 E0.004
G1 X74.837 Y115.846 E0.005
G1 X74.708 Y115.924 E0.005
G1 X74.634 Y116.016 E0.004
G1 X74.597 Y116.093 E0.003
G1 X74.574 Y116.224 E0.004
G1 X74.598 Y116.362 E0.005
G1 X74.669 Y116.482 E0.004
G1 X74.748 Y116.55 E0.004
G1 X72.636 E0.07
G1 X72.338 Y116.532 E0.01
G1 X72.023 Y116.472 E0.011
G1 X71.768 Y116.392 E0.009
G1 X71.501 Y116.272 E0.009
G1 X71.25 Y116.119 E0.01
G1 X71.019 Y115.939 E0.01
G1 X70.811 Y115.731 E0.01
G1 X70.631 Y115.5 E0.009
G1 X70.479 Y115.249 E0.01
G1 X70.35 Y114.956 E0.011
G1 X70.271 Y114.701 E0.009
G1 X70.218 Y114.413 E0.009
G1 X70.2 Y114.114 E0.01
G1 X70.202 Y103.358 E0.358
G1 X70.218 Y103.087 E0.009
G1 X70.271 Y102.799 E0.01
G1 X70.358 Y102.519 E0.01
G1 X70.478 Y102.251 E0.009
G1 X70.631 Y102 E0.01
G1 X70.811 Y101.769 E0.01
G1 X71.019 Y101.561 E0.01
G1 X71.25 Y101.381 E0.009
G1 X71.501 Y101.229 E0.01
G1 X71.794 Y101.1 E0.011
G1 X72.049 Y101.021 E0.009
G1 X72.337 Y100.968 E0.01
G1 X72.636 Y100.95 E0.009
G1 X77.364 E0.158
G1 X77.662 Y100.968 E0.01
G1 X77.977 Y101.028 E0.01
G1 X78.232 Y101.108 E0.009
G1 X78.499 Y101.228 E0.01
G1 X78.75 Y101.381 E0.01
G1 X78.981 Y101.561 E0.009
G1 X79.189 Y101.769 E0.01
G1 X79.369 Y102 E0.01
G1 X79.521 Y102.25 E0.01
G1 X79.65 Y102.545 E0.01
G1 X79.729 Y102.799 E0.009
G1 X79.782 Y103.087 E0.01
;rapid-leaky
G0 X79.424 Y103.13 F7200
;bead-perimeter_inner
G1 X79.44 Y103.397 F960 E0.009
G1 Y108.08 E0.156
G1 X79.372 Y108.058 E0.002
G1 X79.198 Y108.043 E0.006
G1 X78.963 Y108.084 E0.008
G1 X78.753 Y108.203 E0.008
G1 X78.623 Y108.333 E0.006
G1 X78.501 Y108.543 E0.008
G1 X78.454 Y108.808 E0.009
G1 X78.501 Y109.071 E0.009
G1 X78.635 Y109.3 E0.009
G1 X78.839 Y109.474 E0.009
G1 X79.061 Y109.552 E0.007
G1 X79.244 Y109.573 E0.007
G1 X79.44 Y109.536 E0.006
G1 Y114.103 E0.152
G1 X79.424 Y114.37 E0.009
G1 X79.379 Y114.615 E0.008
G1 X79.305 Y114.854 E0.009
G1 X79.202 Y115.081 E0.008
G1 X79.072 Y115.295 E0.008
G1 X78.919 Y115.492 E0.009
G1 X78.742 Y115.669 E0.008
G1 X78.545 Y115.822 E0.008
G1 X78.331 Y115.952 E0.008
G1 X78.104 Y116.055 E0.009
G1 X77.867 Y116.129 E0.008
G1 X77.594 Y116.176 E0.009
G1 X77.354 Y116.19 E0.008
G1 X75.74 E0.054
G1 X75.699 Y115.96 E0.008
G1 X75.577 Y115.75 E0.008
G1 X75.451 Y115.624 E0.006
G1 X75.241 Y115.502 E0.008
G1 X74.976 Y115.455 E0.009
G1 X74.707 Y115.503 E0.009
G1 X74.467 Y115.65 E0.009
G1 X74.328 Y115.822 E0.008
G1 X74.251 Y115.982 E0.005
G1 X74.215 Y116.19 E0.007
G1 X72.647 E0.053
G1 X72.383 Y116.174 E0.008
G1 X72.111 Y116.122 E0.01
G1 X71.896 Y116.055 E0.007
G1 X71.669 Y115.952 E0.008
G1 X71.455 Y115.822 E0.009
G1 X71.258 Y115.669 E0.008
G1 X71.081 Y115.492 E0.008
G1 X70.928 Y115.295 E0.009
G1 X70.799 Y115.083 E0.008
G1 X70.687 Y114.83 E0.009
G1 X70.621 Y114.615 E0.008
G1 X70.576 Y114.37 E0.008
G1 X70.56 Y114.103 E0.009
G1 X70.561 Y109.567 E0.151
G1 X70.614 Y109.577 E0.001
G1 X70.879 Y109.527 E0.009
G1 X71.107 Y109.398 E0.009
G1 X71.288 Y109.184 E0.009
G1 X71.374 Y108.915 E0.01
G1 X71.371 Y108.695 E0.007
G1 X71.326 Y108.525 E0.006
G1 X71.202 Y108.307 E0.008
G1 X70.977 Y108.129 E0.01
G1 X70.764 Y108.058 E0.007
G1 X70.561 Y108.048 E0.007
G1 X70.562 Y103.369 E0.156
G1 X70.576 Y103.13 E0.008
G1 X70.621 Y102.886 E0.008
G1 X70.696 Y102.647 E0.008
G1 X70.798 Y102.419 E0.009
G1 X70.928 Y102.205 E0.008
G1 X71.081 Y102.008 E0.008
G1 X71.258 Y101.831 E0.009
G1 X71.455 Y101.678 E0.008
G1 X71.667 Y101.549 E0.008
G1 X71.92 Y101.437 E0.009
G1 X72.135 Y101.371 E0.008
G1 X72.38 Y101.326 E0.008
G1 X72.647 Y101.31 E0.009
G1 X74.211 E0.052
G1 X74.202 Y101.359 E0.002
G1 X74.249 Y101.624 E0.009
G1 X74.371 Y101.834 E0.008
G1 X74.497 Y101.96 E0.006
G1 X74.707 Y102.082 E0.008
G1 X74.972 Y102.129 E0.009
G1 X75.241 Y102.081 E0.009
G1 X75.481 Y101.934 E0.009
G1 X75.62 Y101.762 E0.007
G1 X75.697 Y101.602 E0.006
G1 X75.74 Y101.359 E0.009
G1 X75.731 Y101.31 E0.001
G1 X77.353 E0.054
G1 X77.617 Y101.326 E0.009
G1 X77.889 Y101.378 E0.009
G1 X78.104 Y101.445 E0.008
G1 X78.331 Y101.548 E0.008
G1 X78.545 Y101.678 E0.008
G1 X78.742 Y101.831 E0.009
G1 X78.919 Y102.008 E0.008
G1 X79.072 Y102.205 E0.008
G1 X79.201 Y102.417 E0.008
G1 X79.313 Y102.671 E0.01
G1 X79.379 Y102.885 E0.007
G1 X79.424 Y103.13 E0.008
G1 F2100 E-0.5
;rapid-dry
G0 Z0.4 F7200
G0 X149.8 Y93.785 F7200
G0 Z0.2 F7200
G1 F2100 E0.5
;bead-perimeter_outer
G1 X70.2 F720 E2.648
G1 Y81.715 E0.401
G1 X149.8 E2.648
G1 Y93.785 E0.401
;rapid-leaky
G0 X149.44 Y93.425 F7200
;bead-perimeter_inner
G1 X70.56 F960 E2.624
G1 Y82.075 E0.377
G1 X149.44 E2.624
G1 Y93.425 E0.377
;rapid-leaky
G0 X148.738 Y93.185 F7200
;bead-solid_infill
G1 X149.2 Y92.723 F720 E0.022
G1 Y92.157 E0.019
G1 X148.172 Y93.185 E0.048
G1 X147.606 E0.019
G1 X149.2 Y91.591 E0.075
G1 Y91.026 E0.019
G1 X147.041 Y93.185 E0.102
G1 X146.475 E0.018
G1 X149.2 Y90.46 E0.129
G1 Y89.894 E0.018
G1 X145.909 Y93.185 E0.155
G1 X145.344 E0.019
G1 X149.2 Y89.329 E0.181
G1 Y88.763 E0.019
G1 X144.778 Y93.185 E0.208
G1 X144.212 E0.019
G1 X149.2 Y88.197 E0.235
G1 Y87.632 E0.018
G1 X143.647 Y93.185 E0.262
G1 X143.081 E0.018
G1 X149.2 Y87.066 E0.288
G1 Y86.5 E0.019
G1 X142.515 Y93.185 E0.314
G1 X141.949 E0.019
G1 X149.2 Y85.935 E0.341
G1 Y85.369 E0.019
G1 X141.384 Y93.185 E0.368
G1 X140.818 E0.019
G1 X149.2 Y84.803 E0.394
G1 Y84.237 E0.019
G1 X140.252 Y93.185 E0.421
G1 X139.687 E0.018
G1 X149.2 Y83.672 E0.448
G1 Y83.106 E0.019
G1 X139.121 Y93.185 E0.474
G1 X138.555 E0.019
G1 X149.2 Y82.54 E0.5
G1 Y82.315 E0.008
G1 X148.86 E0.011
G1 X137.99 Y93.185 E0.511
G1 X137.424 E0.019
G1 X148.294 Y82.315 E0.511
G1 X147.728 E0.019
G1 X136.858 Y93.185 E0.512
G1 X136.293 E0.018
G1 X147.163 Y82.315 E0.512
G1 X146.597 E0.019
G1 X135.727 Y93.185 E0.511
G1 X135.161 E0.019
G1 X146.031 Y82.315 E0.511
G1 X145.466 E0.019
G1 X134.596 Y93.185 E0.511
G1 X134.03 E0.019
G1 X144.9 Y82.315 E0.511
G1 X144.334 E0.019
G1 X133.464 Y93.185 E0.511
G1 X132.899 E0.019
G1 X143.769 Y82.315 E0.511
G1 X143.203 E0.019
G1 X132.333 Y93.185 E0.511
G1 X131.767 E0.019
G1 X142.637 Y82.315 E0.512
G1 X142.071 E0.018
G1 X131.201 Y93.185 E0.512
G1 X130.636 E0.018
G1 X141.506 Y82.315 E0.512
G1 X140.94 E0.019
G1 X130.07 Y93.185 E0.511
G1 X129.504 E0.019
G1 X140.374 Y82.315 E0.511
G1 X139.809 E0.019
G1 X128.939 Y93.185 E0.511
G1 X128.373 E0.019
G1 X139.243 Y82.315 E0.511
G1 X138.677 E0.019
G1 X127.807 Y93.185 E0.511
G1 X127.242 E0.019
G1 X138.112 Y82.315 E0.511
G1 X137.546 E0.019
G1 X126.676 Y93.185 E0.511
G1 X126.11 E0.019
G1 X136.98 Y82.315 E0.512
G1 X136.415 E0.018
G1 X125.545 Y93.185 E0.512
G1 X124.979 E0.019
G1 X135.849 Y82.315 E0.511
G1 X135.283 E0.019
G1 X124.413 Y93.185 E0.511
G1 X123.848 E0.019
G1 X134.718 Y82.315 E0.511
G1 X134.152 E0.019
G1 X123.282 Y93.185 E0.511
G1 X122.716 E0.019
G1 X133.586 Y82.315 E0.511
G1 X133.021 E0.019
G1 X122.151 Y93.185 E0.511
G1 X121.585 E0.019
G1 X132.455 Y82.315 E0.511
G1 X131.889 E0.019
G1 X121.019 Y93.185 E0.512
G1 X120.453 E0.018
G1 X131.323 Y82.315 E0.512
G1 X130.758 E0.018
G1 X119.888 Y93.185 E0.512
G1 X119.322 E0.019
G1 X130.192 Y82.315 E0.511
G1 X129.626 E0.019
G1 X118.756 Y93.185 E0.511
G1 X118.191 E0.019
G1 X129.061 Y82.315 E0.511
G1 X128.495 E0.019
G1 X117.625 Y93.185 E0.511
G1 X117.059 E0.019
G1 X127.929 Y82.315 E0.511
G1 X127.364 E0.019
G1 X116.494 Y93.185 E0.511
G1 X115.928 E0.019
G1 X126.798 Y82.315 E0.512
G1 X126.232 E0.018
G1 X115.362 Y93.185 E0.512
G1 X114.797 E0.018
G1 X125.667 Y82.315 E0.512
G1 X125.101 E0.019
G1 X114.231 Y93.185 E0.511
G1 X113.665 E0.019
G1 X124.535 Y82.315 E0.511
G1 X123.97 E0.019
G1 X113.1 Y93.185 E0.511
G1 X112.534 E0.019
G1 X123.404 Y82.315 E0.511
G1 X122.838 E0.019
G1 X111.968 Y93.185 E0.511
G1 X111.402 E0.019
G1 X122.272 Y82.315 E0.511
G1 X121.707 E0.019
G1 X110.837 Y93.185 E0.511
G1 X110.271 E0.019
G1 X121.141 Y82.315 E0.512
G1 X120.575 E0.018
G1 X109.705 Y93.185 E0.512
G1 X109.14 E0.018
G1 X120.01 Y82.315 E0.512
G1 X119.444 E0.019
G1 X108.574 Y93.185 E0.511
G1 X108.008 E0.019
G1 X118.878 Y82.315 E0.511
G1 X118.313 E0.019
G1 X107.443 Y93.185 E0.511
G1 X106.877 E0.019
G1 X117.747 Y82.315 E0.511
G1 X117.181 E0.019
G1 X106.311 Y93.185 E0.511
G1 X105.746 E0.019
G1 X116.616 Y82.315 E0.511
G1 X116.05 E0.019
G1 X105.18 Y93.185 E0.512
G1 X104.614 E0.018
G1 X115.484 Y82.315 E0.512
G1 X114.919 E0.018
G1 X104.049 Y93.185 E0.512
G1 X103.483 E0.019
G1 X114.353 Y82.315 E0.511
G1 X113.787 E0.019
G1 X102.917 Y93.185 E0.511
G1 X102.352 E0.019
G1 X113.222 Y82.315 E0.511
G1 X112.656 E0.019
G1 X101.786 Y93.185 E0.511
G1 X101.22 E0.019
G1 X112.09 Y82.315 E0.511
G1 X111.524 E0.019
G1 X100.654 Y93.185 E0.511
G1 X100.089 E0.019
G1 X110.959 Y82.315 E0.511
G1 X110.393 E0.019
G1 X99.523 Y93.185 E0.512
G1 X98.957 E0.018
G1 X109.827 Y82.315 E0.512
G1 X109.262 E0.019
G1 X98.392 Y93.185 E0.511
G1 X97.826 E0.019
G1 X108.696 Y82.315 E0.511
G1 X108.13 E0.019
G1 X97.26 Y93.185 E0.511
G1 X96.695 E0.019
G1 X107.565 Y82.315 E0.511
G1 X106.999 E0.019
G1 X96.129 Y93.185 E0.511
G1 X95.563 E0.019
G1 X106.433 Y82.315 E0.511
G1 X105.868 E0.019
G1 X94.998 Y93.185 E0.511
G1 X94.432 E0.019
G1 X105.302 Y82.315 E0.512
G1 X104.736 E0.018
G1 X93.866 Y93.185 E0.512
G1 X93.301 E0.018
G1 X104.171 Y82.315 E0.512
G1 X103.605 E0.019
G1 X92.735 Y93.185 E0.511
G1 X92.169 E0.019
G1 X103.039 Y82.315 E0.511
G1 X102.473 E0.019
G1 X91.603 Y93.185 E0.511
G1 X91.038 E0.019
G1 X101.908 Y82.315 E0.511
G1 X101.342 E0.019
G1 X90.472 Y93.185 E0.511
G1 X89.906 E0.019
G1 X100.776 Y82.315 E0.511
G1 X100.211 E0.019
G1 X89.341 Y93.185 E0.511
G1 X88.775 E0.019
G1 X99.645 Y82.315 E0.512
G1 X99.079 E0.018
G1 X88.209 Y93.185 E0.512
G1 X87.644 E0.019
G1 X98.514 Y82.315 E0.511
G1 X97.948 E0.019
G1 X87.078 Y93.185 E0.511
G1 X86.512 E0.019
G1 X97.382 Y82.315 E0.511
G1 X96.817 E0.019
G1 X85.947 Y93.185 E0.511
G1 X85.381 E0.019
G1 X96.251 Y82.315 E0.511
G1 X95.685 E0.019
G1 X84.815 Y93.185 E0.511
G1 X84.25 E0.019
G1 X95.12 Y82.315 E0.511
G1 X94.554 E0.019
G1 X83.684 Y93.185 E0.512
G1 X83.118 E0.018
G1 X93.988 Y82.315 E0.512
G1 X93.423 E0.018
G1 X82.553 Y93.185 E0.512
G1 X81.987 E0.019
G1 X92.857 Y82.315 E0.511
G1 X92.291 E0.019
G1 X81.421 Y93.185 E0.511
G1 X80.855 E0.019
G1 X91.725 Y82.315 E0.511
G1 X91.16 E0.019
G1 X80.29 Y93.185 E0.511
G1 X79.724 E0.019
G1 X90.594 Y82.315 E0.511
G1 X90.028 E0.019
G1 X79.158 Y93.185 E0.511
G1 X78.593 E0.019
G1 X89.463 Y82.315 E0.512
G1 X88.897 E0.018
G1 X78.027 Y93.185 E0.512
G1 X77.461 E0.018
G1 X88.331 Y82.315 E0.512
G1 X87.766 E0.019
G1 X76.896 Y93.185 E0.511
G1 X76.33 E0.019
G1 X87.2 Y82.315 E0.511
G1 X86.634 E0.019
G1 X75.764 Y93.185 E0.511
G1 X75.199 E0.019
G1 X86.069 Y82.315 E0.511
G1 X85.503 E0.019
G1 X74.633 Y93.185 E0.511
G1 X74.067 E0.019
G1 X84.937 Y82.315 E0.511
G1 X84.372 E0.019
G1 X73.502 Y93.185 E0.511
G1 X72.936 E0.019
G1 X83.806 Y82.315 E0.512
G1 X83.24 E0.018
G1 X72.37 Y93.185 E0.512
G1 X71.805 E0.018
G1 X82.675 Y82.315 E0.512
G1 X82.109 E0.019
G1 X71.239 Y93.185 E0.511
G1 X70.8 E0.014
G1 Y93.058 E0.005
G1 X81.543 Y82.315 E0.505
G1 X80.977 E0.019
G1 X70.8 Y92.492 E0.479
G1 Y91.927 E0.018
G1 X80.412 Y82.315 E0.452
G1 X79.846 E0.019
G1 X70.8 Y91.361 E0.426
G1 Y90.795 E0.019
G1 X79.28 Y82.315 E0.399
G1 X78.715 E0.018
G1 X70.8 Y90.23 E0.373
G1 Y89.664 E0.018
G1 X78.149 Y82.315 E0.346
G1 X77.583 E0.019
G1 X70.8 Y89.098 E0.319
G1 Y88.533 E0.019
G1 X77.018 Y82.315 E0.292
G1 X76.452 E0.019
G1 X70.8 Y87.967 E0.266
G1 Y87.401 E0.019
G1 X75.886 Y82.315 E0.239
G1 X75.321 E0.019
G1 X70.8 Y86.836 E0.212
G1 Y86.27 E0.019
G1 X74.755 Y82.315 E0.186
G1 X74.189 E0.019
G1 X70.8 Y85.704 E0.16
G1 Y85.139 E0.018
G1 X73.624 Y82.315 E0.133
G1 X73.058 E0.019
G1 X70.8 Y84.573 E0.106
G1 Y84.007 E0.019
G1 X72.492 Y82.315 E0.08
G1 X71.926 E0.018
G1 X70.8 Y83.441 E0.053
G1 Y82.876 E0.019
G1 X71.361 Y82.315 E0.027
G1 F2100 E-0.5
;rapid-dry
G0 Z0.4 F7200
G0 X71.612 Y101.863 F7200
G0 Z0.2 F7200
G1 F2100 E0.5
;bead-solid_infill
G1 X71.113 Y102.362 F720 E0.023
G1 X71.011 Y102.531 E0.007
G1 X70.92 Y102.732 E0.007
G1 X70.854 Y102.943 E0.007
G1 X70.815 Y103.159 E0.008
G1 X70.811 Y103.23 E0.002
G1 X72.48 Y101.56 E0.078
G1 X72.654 Y101.55 E0.006
G1 X73.056 E0.014
G1 X70.802 Y103.804 E0.106
G1 Y104.37 E0.018
G1 X73.622 Y101.55 E0.133
G1 X73.992 E0.012
G1 X74.004 Y101.617 E0.003
G1 X74.019 Y101.708 E0.003
G1 X74.023 Y101.714
G1 X70.802 Y104.936 E0.152
G1 Y105.502 E0.018
G1 X74.25 Y102.053 E0.163
G1 X74.35 Y102.152 E0.004
G1 X74.582 Y102.287 E0.009
G1 X70.802 Y106.067 E0.178
G1 X70.801 Y106.633 E0.019
G1 X75.082 Y102.353 E0.201
G1 X75.327 Y102.309 E0.008
G1 X75.509 Y102.198 E0.008
G1 X75.641 Y102.117 E0.005
G1 X75.824 Y101.891 E0.009
G1 X75.928 Y101.677 E0.008
G1 X75.95 Y101.55 E0.005
G1 X76.45 E0.016
G1 X70.801 Y107.199 E0.266
G1 Y107.765 E0.019
G1 X77.016 Y101.55 E0.292
G1 X77.346 E0.011
G1 X77.355 Y101.551
G1 X77.568 Y101.563 E0.007
G1 X71.162 Y107.969 E0.302
G1 X71.388 Y108.147 E0.009
G1 X71.446 Y108.251 E0.004
G1 X73.386 Y106.311 E0.091
G1 X73.426 Y106.641 E0.012
G1 X73.497 Y106.766 E0.004
G1 X71.608 Y108.655 E0.089
G1 X71.61 Y108.661
G1 X71.615 Y108.95 E0.01
G1 X71.502 Y109.303 E0.012
G1 X71.37 Y109.458 E0.007
G1 X73.498 Y107.331 E0.1
G1 Y107.896 E0.019
G1 X70.801 Y110.594 E0.127
G1 Y110.028 E0.019
G1 X71.217 Y109.611 E0.019
G1 X70.801 Y111.16 E0.054
G1 X73.498 Y108.462 E0.126
G1 Y109.028 E0.019
G1 X70.8 Y111.725 E0.127
G1 Y112.291 E0.019
G1 X73.498 Y109.593 E0.127
G1 Y110.159 E0.019
G1 X70.8 Y112.857 E0.127
G1 Y113.423 E0.018
G1 X73.565 Y110.657 E0.13
G1 X73.582 Y110.718 E0.003
G1 X73.62 Y110.798 E0.003
G1 X73.512 Y110.936 E0.005
G1 X73.418 Y111.329 E0.014
G1 X73.425 Y111.364 E0.001
G1 X70.8 Y113.988 E0.123
G1 Y114.096 E0.004
G1 X70.815 Y114.341 E0.008
G1 X70.845 Y114.509 E0.006
G1 X73.553 Y111.801 E0.127
G1 X73.727 Y112.105 E0.012
G1 X73.815 E0.003
G1 X70.993 Y114.927 E0.132
G1 X71.012 Y114.972 E0.002
G1 X71.126 Y115.159 E0.007
G1 X71.214 Y115.272 E0.005
G1 X74.215 Y112.271 E0.141
G1 X74.342 Y112.302 E0.005
G1 X74.69 Y112.241 E0.011
G1 X74.925 Y112.106 E0.009
G1 X74.937 Y112.115 E0.001
G1 X71.499 Y115.552 E0.162
G1 X71.591 Y115.624 E0.004
G1 X71.692 Y115.686 E0.003
G1 X71.781 Y115.74 E0.004
G1 X71.847 Y115.769 E0.002
G1 X75.34 Y112.277 E0.165
G1 X75.444 Y112.302 E0.003
G1 X75.792 Y112.241 E0.012
G1 X76.097 Y112.065 E0.012
G1 X76.328 Y111.758 E0.012
G1 X76.353 Y111.652 E0.004
G1 X76.42 Y111.379 E0.009
G1 X76.404 Y111.29 E0.003
G1 X76.393 Y111.224 E0.003
G1 X78.342 Y109.275 E0.091
G1 X78.448 Y109.456 E0.007
G1 X78.598 Y109.584 E0.007
G1 X72.274 Y115.909 E0.297
G1 X72.413 Y115.936 E0.005
G1 X72.647 Y115.95 E0.008
G1 X72.654
G1 X72.798 E0.005
G1 X78.973 Y109.776 E0.29
G1 X79.007 Y109.788 E0.002
G1 X79.2 Y109.81 E0.006
G1 Y110.114 E0.01
G1 X73.364 Y115.95 E0.275
G1 X73.93 E0.018
G1 X74.065 Y115.815 E0.007
G1 X74.087 Y115.768 E0.002
G1 X74.124 Y115.693 E0.002
G1 X74.307 Y115.467 E0.01
G1 X74.519 Y115.337 E0.008
G1 X74.581 Y115.299 E0.003
G1 X79.2 Y110.68 E0.217
G1 Y111.245 E0.019
G1 X75.195 Y115.25 E0.188
G1 X75.325 Y115.272 E0.004
G1 X75.586 Y115.425 E0.011
G1 X79.2 Y111.811 E0.17
G1 Y112.377 E0.018
G1 X75.845 Y115.732 E0.158
G1 X75.929 Y115.876 E0.006
G1 X75.941 Y115.95 E0.002
G1 X76.192 E0.009
G1 X79.2 Y112.942 E0.141
G1 Y113.508 E0.019
G1 X76.758 Y115.95 E0.115
G1 X77.324 E0.019
G1 X79.2 Y114.074 E0.088
G1 Y114.096 E0.001
G1 X79.185 Y114.341 E0.008
G1 X79.146 Y114.557 E0.007
G1 X79.084 Y114.756 E0.007
G1 X78.006 Y115.834 E0.051
G1 F2100 E-0.5
;rapid-dry
G0 Z0.4 F7200
G0 X71.078 Y129.55 F7200
G0 Z0.2 F7200
G1 F2100 E0.5
;bead-solid_infill
G1 X70.8 Y129.828 F720 E0.013
G1 Y130.393 E0.018
G1 X71.643 Y129.55 E0.04
G1 X72.209 E0.019
G1 X71.077 Y130.682 E0.053
G1 X71.643 E0.019
G1 X72.775 Y129.55 E0.053
G1 X73.34 E0.019
G1 X72.208 Y130.682 E0.053
G1 X72.774 E0.019
G1 X73.906 Y129.55 E0.053
G1 X74.472 E0.019
G1 X73.34 Y130.682 E0.053
G1 X73.905 E0.019
G1 X75.037 Y129.55 E0.054
G1 X75.603 E0.018
G1 X74.471 Y130.682 E0.054
G1 X75.037 E0.018
G1 X76.083 Y129.636 E0.05
G1 Y130.202 E0.018
G1 X75.603 Y130.682 E0.023
G1 F2100 E-0.5
;rapid-dry
G0 Z0.4 F7200
G0 X75.814 Y123.682 F7200
G0 Z0.2 F7200
G1 F2100 E0.5
;bead-solid_infill
G1 X76.083 Y123.413 F720 E0.013
G1 Y122.848 E0.018
G1 X75.249 Y123.682 E0.04
G1 X74.683 E0.019
G1 X75.815 Y122.55 E0.053
G1 X75.249 E0.019
G1 X74.117 Y123.682 E0.053
G1 X73.552 E0.019
G1 X74.684 Y122.55 E0.053
G1 X74.118 E0.019
G1 X72.986 Y123.682 E0.053
G1 X72.42 E0.019
G1 X73.552 Y122.55 E0.053
G1 X72.987 E0.019
G1 X71.855 Y123.682 E0.053
G1 X71.289 E0.019
G1 X72.421 Y122.55 E0.053
G1 X71.855 E0.019
G1 X70.8 Y123.605 E0.05
G1 Y123.039 E0.018
G1 X71.289 Y122.55 E0.023
G1 F2100 E-0.5
;rapid-dry
G0 Z0.4 F7200
G0 X76.236 Y110.815 F7200
G0 Z0.2 F7200
G1 F2100 E0.5
;bead-solid_infill
G1 X78.216 Y108.836 F720 E0.094
G1 X78.211 Y108.808
G1 X78.271 Y108.459 E0.012
G1 X78.431 Y108.186 E0.011
G1 X78.606 Y108.011 E0.008
G1 X78.784 Y107.91 E0.007
G1 X78.88 Y107.855 E0.004
G1 X79.187 Y107.801 E0.01
G1 X79.2 Y107.802
G1 Y107.286 E0.017
G1 X76.34 Y110.146 E0.135
G1 Y109.58 E0.019
G1 X79.2 Y106.72 E0.134
G1 Y106.154 E0.019
G1 X76.34 Y109.014 E0.135
G1 Y108.449 E0.018
G1 X79.2 Y105.589 E0.135
G1 Y105.023 E0.019
G1 X76.34 Y107.883 E0.134
G1 Y107.322 E0.019
G1 Y107.318
G1 X79.2 Y104.457 E0.135
G1 Y103.891 E0.019
G1 X76.398 Y106.693 E0.131
G1 X76.458 Y106.333 E0.012
G1 X76.42 Y106.106 E0.008
G1 X79.196 Y103.33 E0.131
G1 X79.185 Y103.159 E0.005
G1 X79.146 Y102.943 E0.008
G1 X79.115 Y102.845 E0.003
G1 X76.239 Y105.721 E0.135
G1 X76.233 Y105.711 E0.001
G1 X75.95 Y105.469 E0.012
G1 X75.931 Y105.464 E0.001
G1 X78.942 Y102.452 E0.142
G1 X78.874 Y102.341 E0.004
G1 X78.738 Y102.167 E0.007
G1 X78.7 Y102.129 E0.002
G1 X75.463 Y105.366 E0.152
G1 X75.155 Y105.422 E0.011
G1 X74.914 Y105.56 E0.009
G1 X74.815 Y105.47 E0.004
G1 X74.798 Y105.465 E0.001
G1 X78.396 Y101.868 E0.169
G1 X78.219 Y101.76 E0.007
G1 X78.024 Y101.673 E0.007
G1 X74.334 Y105.363 E0.174
G1 F2100 E-0.5
;rapid-dry
G0 Z0.4 F7200
G0 X152.155 Y89.525 F7200
G0 Z0.2 F7200
G1 F2100 E0.5
;bead-support
G1 X152.361 F1320 E0.007
G1 X152.761 Y89.125 E0.018
G1 X151.755 E0.034
G1 X151.355 Y88.725 E0.019
G1 X153.161 E0.06
G1 X153.561 Y88.325 E0.019
G1 X150.955 E0.086
G1 X150.69 Y88.06 E0.013
G1 Y87.925 E0.004
G1 X153.961 E0.109
G1 X154.361 Y87.525 E0.019
G1 X150.69 E0.122
G1 Y87.125 E0.013
G1 X154.761 E0.136
G1 X155.161 Y86.725 E0.018
G1 X150.69 E0.149
G1 Y86.325 E0.013
G1 X155.561 E0.162
G1 X155.961 Y85.925 E0.019
G1 X150.69 E0.175
G1 Y85.525 E0.014
G1 X156.361 E0.188
G1 X156.636 Y85.25 E0.013
G1 X156.511 Y85.125 E0.006
G1 X150.69 E0.194
G1 Y84.725 E0.013
G1 X156.111 E0.18
G1 X155.711 Y84.325 E0.019
G1 X150.69 E0.167
G1 Y83.925 E0.014
G1 X155.311 E0.153
G1 X154.911 Y83.525 E0.019
G1 X150.69 E0.14
G1 Y83.125 E0.014
G1 X154.511 E0.127
G1 X154.111 Y82.725 E0.019
G1 X150.69 E0.113
G1 Y82.44 E0.01
G1 X150.805 Y82.325 E0.005
G1 X153.711 E0.097
G1 X153.311 Y81.925 E0.019
G1 X151.205 E0.07
G1 X151.605 Y81.525 E0.019
G1 X152.911 E0.043
G1 X152.511 Y81.125 E0.019
G1 X152.005 E0.017
G1 F2100 E-0.5
G0 X152.511 F2400
G0 X152.86 Y81.475 F2400
G0 X152.511 Y81.125 F2400
G0 X152.005 F2400
;LAYER:2
M107
;rapid-leaky
G0 X152.258 Y80.533 Z0.35 F7200
G1 F2100 E0.5
;bead-support
G1 X156.975 Y85.25 F3300 E0.166
G1 X152.258 Y89.967 E0.166
G1 X150.45 Y88.159 E0.064
G1 Y82.341 E0.145
G1 X152.258 Y80.533 E0.064
G1 F2100 E-0.5
G0 X152.965 Y81.24 F2400
G0 X152.258 Y80.533 F2400
;rapid-leaky
G0 X156.437 Y85.051 F7200
G1 F2100 E0.5
;bead-support
G1 Y85.449 F3300 E0.01
G1 X156.037 Y85.849 E0.014
G1 Y84.651 E0.03
G1 X155.637 Y84.251 E0.014
G1 Y86.249 E0.05
G1 X155.237 Y86.649 E0.014
G1 Y83.851 E0.07
G1 X154.837 Y83.451 E0.014
G1 Y87.049 E0.09
G1 X154.437 Y87.449 E0.014
G1 Y83.051 E0.109
G1 X154.037 Y82.651 E0.015
G1 Y87.849 E0.129
G1 X153.637 Y88.249 E0.014
G1 Y82.251 E0.15
G1 X153.237 Y81.851 E0.014
G1 Y88.649 E0.17
G1 X152.837 Y89.049 E0.014
G1 Y81.451 E0.189
G1 X152.437 Y81.051 E0.014
G1 Y89.449 E0.21
G1 X152.258 Y89.628 E0.006
G1 X152.037 Y89.407 E0.008
G1 Y81.093 E0.207
G1 X151.637 Y81.493 E0.014
G1 Y89.007 E0.188
G1 X151.237 Y88.607 E0.014
G1 Y81.893 E0.167
G1 X150.837 Y82.293 E0.015
G1 Y88.207 E0.147
G1 F2100 E-0.5
G0 Y87.207 F2400
G0 Y88.207 F2400
;rapid-dry
G0 Z0.55 F7200
G0 X149.8 Y94.139 F7200
G0 Z0.35 F7200
G1 F2100 E0.5
;bead-perimeter_outer
G1 X70.2 F1800 E1.986
G1 Y81.361 E0.318
G1 X149.8 E1.986
G1 Y94.139 E0.319
;rapid-leaky
G0 X149.44 Y93.779 F7200
;bead-perimeter_inner
G1 X70.56 F2400 E1.968
G1 Y81.721 E0.3
G1 X149.44 E1.968
G1 Y93.779 E0.301
G1 F2100 E-0.5
;rapid-dry
G0 Z0.55 F7200
G0 X79.782 Y103.087 F7200
G0 Z0.35 F7200
G1 F2100 E0.5
;bead-perimeter_outer
G1 X79.8 Y103.386 F1800 E0.007
G1 Y114.114 E0.268
G1 X79.782 Y114.413 E0.007
G1 X79.729 Y114.701 E0.008
G1 X79.642 Y114.982 E0.007
G1 X79.522 Y115.249 E0.007
G1 X79.369 Y115.5 E0.008
G1 X79.189 Y115.731 E0.007
G1 X78.981 Y115.939 E0.007
G1 X78.75 Y116.119 E0.008
G1 X78.499 Y116.272 E0.007
G1 X78.232 Y116.392 E0.007
G1 X77.951 Y116.479 E0.008
G1 X77.663 Y116.532 E0.007
G1 X77.364 Y116.55 E0.007
G1 X75.206 E0.054
G1 X75.307 Y116.451 E0.004
G1 X75.356 Y116.358 E0.002
G1 X75.38 Y116.224 E0.004
G1 X75.356 Y116.085 E0.003
G1 X75.29 Y115.972 E0.003
G1 X75.229 Y115.911 E0.003
G1 X75.116 Y115.845 E0.003
G1 X74.977 Y115.821 E0.003
G1 X74.834 Y115.846 E0.004
G1 X74.69 Y115.939 E0.004
G1 X74.599 Y116.081 E0.004
G1 X74.574 Y116.224 E0.004
G1 X74.598 Y116.362 E0.004
G1 X74.671 Y116.487 E0.003
G1 X74.754 Y116.55 E0.003
G1 X72.636 E0.053
G1 X72.337 Y116.532 E0.007
G1 X72.049 Y116.479 E0.007
G1 X71.768 Y116.392 E0.008
G1 X71.501 Y116.272 E0.007
G1 X71.25 Y116.119 E0.007
G1 X71.019 Y115.939 E0.008
G1 X70.811 Y115.731 E0.007
G1 X70.631 Y115.5 E0.007
G1 X70.478 Y115.249 E0.008
G1 X70.358 Y114.982 E0.007
G1 X70.271 Y114.701 E0.007
G1 X70.218 Y114.413 E0.008
G1 X70.2 Y114.114 E0.007
G1 X70.203 Y103.329 E0.269
G1 X70.218 Y103.087 E0.006
G1 X70.271 Y102.799 E0.007
G1 X70.358 Y102.519 E0.008
G1 X70.478 Y102.251 E0.007
G1 X70.631 Y102 E0.007
G1 X70.811 Y101.769 E0.008
G1 X71.019 Y101.561 E0.007
G1 X71.25 Y101.381 E0.007
G1 X71.501 Y101.228 E0.008
G1 X71.768 Y101.108 E0.007
G1 X72.049 Y101.021 E0.007
G1 X72.337 Y100.968 E0.008
G1 X72.636 Y100.95 E0.007
G1 X77.364 E0.118
G1 X77.663 Y100.968 E0.008
G1 X77.951 Y101.021 E0.007
G1 X78.232 Y101.108 E0.007
G1 X78.499 Y101.228 E0.008
G1 X78.75 Y101.381 E0.007
G1 X78.981 Y101.561 E0.007
G1 X79.189 Y101.769 E0.007
G1 X79.369 Y102 E0.008
G1 X79.522 Y102.251 E0.007
G1 X79.642 Y102.519 E0.007
G1 X79.729 Y102.799 E0.008
G1 X79.782 Y103.087 E0.007
G1 F2100 E-0.5
;rapid-dry
G0 X75.374 Y101.36 F7200
G1 F2100 E0.5
;bead-perimeter_outer
G1 X75.35 Y101.222 F1800 E0.004
G1 X75.277 Y101.097 E0.003
G1 X75.14 Y100.994 E0.004
G1 X74.976 Y100.956 E0.005
G1 X74.832 Y100.981 E0.003
G1 X74.713 Y101.051 E0.004
G1 X74.641 Y101.133 E0.002
G1 X74.592 Y101.226 E0.003
G1 X74.568 Y101.36 E0.003
G1 X74.592 Y101.499 E0.004
G1 X74.658 Y101.612 E0.003
G1 X74.719 Y101.673 E0.002
G1 X74.832 Y101.739 E0.004
G1 X74.971 Y101.763 E0.003
G1 X75.114 Y101.738 E0.004
G1 X75.258 Y101.645 E0.004
G1 X75.349 Y101.504 E0.004
G1 X75.374 Y101.36 E0.004
G1 F2100 E-0.5
;rapid-dry
G0 Z0.55 F7200
G0 X70.994 Y108.67 F7200
G0 Z0.35 F7200
G1 F2100 E0.5
;bead-perimeter_outer
G1 X70.93 Y108.556 F1800 E0.003
G1 X70.868 Y108.495 E0.002
G1 X70.773 Y108.437 E0.003
G1 X70.619 Y108.403 E0.004
G1 X70.478 Y108.428 E0.004
G1 X70.365 Y108.492 E0.003
G1 X70.302 Y108.555 E0.002
G1 X70.236 Y108.668 E0.003
G1 X70.212 Y108.807 E0.004
G1 X70.236 Y108.945 E0.003
G1 X70.309 Y109.07 E0.004
G1 X70.446 Y109.173 E0.004
G1 X70.611 Y109.211 E0.004
G1 X70.754 Y109.184 E0.004
G1 X70.879 Y109.114 E0.004
G1 X70.983 Y108.976 E0.004
G1 X71.019 Y108.811 E0.004
G1 X70.994 Y108.67 E0.004
G1 F2100 E-0.5
;rapid-dry
G0 X74.683 Y111.235 F7200
G1 F2100 E0.5
;bead-perimeter_outer
G1 X74.626 Y111.137 F1800 E0.003
G1 X74.53 Y111.054 E0.003
G1 X74.375 Y111.015 E0.004
G1 X74.246 Y111.038 E0.003
G1 X74.115 Y111.127 E0.004
G1 X74.052 Y111.237 E0.003
G1 X74.032 Y111.352 E0.003
G1 X74.052 Y111.466 E0.003
G1 X74.115 Y111.575 E0.003
G1 X74.244 Y111.666 E0.004
G1 X74.368 Y111.688 E0.003
G1 X74.483 Y111.668 E0.003
G1 X74.585 Y111.61 E0.003
G1 X74.665 Y111.513 E0.003
G1 X74.707 Y111.359 E0.004
G1 X74.683 Y111.235 E0.003
G1 F2100 E-0.5
;rapid-dry
G0 X75.786 Y111.237 F7200
G1 F2100 E0.5
;bead-perimeter_outer
G1 X75.728 Y111.137 F1800 E0.003
G1 X75.632 Y111.054 E0.003
G1 X75.477 Y111.015 E0.004
G1 X75.348 Y111.038 E0.004
G1 X75.217 Y111.127 E0.004
G1 X75.154 Y111.237 E0.003
G1 X75.134 Y111.352 E0.003
G1 X75.154 Y111.466 E0.003
G1 X75.217 Y111.575 E0.003
G1 X75.346 Y111.666 E0.004
G1 X75.47 Y111.688 E0.003
G1 X75.592 Y111.667 E0.003
G1 X75.717 Y111.583 E0.004
G1 X75.785 Y111.468 E0.003
G1 X75.806 Y111.352 E0.003
G1 X75.786 Y111.237 E0.003
G1 F2100 E-0.5
;rapid-dry
G0 X79.601 Y108.663 F7200
G1 F2100 E0.5
;bead-perimeter_outer
G1 X79.509 Y108.522 F1800 E0.004
G1 X79.387 Y108.438 E0.004
G1 X79.227 Y108.403 E0.004
G1 X79.086 Y108.428 E0.003
G1 X78.973 Y108.492 E0.004
G1 X78.91 Y108.555 E0.002
G1 X78.844 Y108.668 E0.003
G1 X78.82 Y108.807 E0.004
G1 X78.844 Y108.945 E0.003
G1 X78.917 Y109.07 E0.004
G1 X79.054 Y109.173 E0.004
G1 X79.219 Y109.211 E0.004
G1 X79.362 Y109.184 E0.004
G1 X79.48 Y109.117 E0.003
G1 X79.553 Y109.034 E0.003
G1 X79.602 Y108.941 E0.003
G1 X79.626 Y108.807 E0.003
G1 X79.601 Y108.663 E0.004
G1 F2100 E-0.5
;rapid-dry
G0 X75.85 Y106.333 F7200
G1 F2100 E0.5
;bead-perimeter_outer
G1 X75.829 Y106.21 F1800 E0.003
G1 X75.766 Y106.101 E0.003
G1 X75.663 Y106.013 E0.003
G1 X75.497 Y105.969 E0.005
G1 X75.364 Y105.993 E0.003
G1 X75.257 Y106.055 E0.003
G1 X75.176 Y106.152 E0.003
G1 X75.132 Y106.269 E0.003
G1 Y106.389 E0.003
G1 X75.155 Y106.465 E0.002
G1 X75.215 Y106.573 E0.003
G1 X75.294 Y106.628 E0.003
G1 X75.201 Y106.584 E0.002
G1 X75.062 Y106.547 E0.004
G1 X74.916 Y106.534 E0.004
G1 X74.754 Y106.553 E0.004
G1 X74.573 Y106.615 E0.004
G1 X74.645 Y106.538 E0.003
G1 X74.69 Y106.453 E0.002
G1 X74.712 Y106.333 E0.003
G1 X74.689 Y106.208 E0.004
G1 X74.627 Y106.101 E0.003
G1 X74.524 Y106.013 E0.003
G1 X74.358 Y105.969 E0.004
G1 X74.227 Y105.993 E0.004
G1 X74.118 Y106.055 E0.003
G1 X74.037 Y106.152 E0.003
G1 X73.993 Y106.269 E0.003
G1 Y106.389 E0.003
G1 X74.016 Y106.465 E0.002
G1 X74.072 Y106.565 E0.003
G1 X74.172 Y106.649 E0.003
G1 X74.32 Y106.695 E0.004
G1 X74.465 Y106.676 E0.004
G1 X74.29 Y106.828 E0.005
G1 X74.208 Y106.946 E0.004
G1 X74.147 Y107.075 E0.004
G1 X74.11 Y107.214 E0.003
G1 X74.098 Y107.347 E0.004
G1 Y110.238 E0.072
G1 X74.11 Y110.372 E0.003
G1 X74.147 Y110.511 E0.004
G1 X74.208 Y110.641 E0.003
G1 X74.29 Y110.757 E0.004
G1 X74.391 Y110.859 E0.003
G1 X74.509 Y110.941 E0.004
G1 X74.638 Y111.002 E0.003
G1 X74.776 Y111.039 E0.004
G1 X74.919 Y111.051 E0.004
G1 X75.064 Y111.039 E0.003
G1 X75.221 Y110.992 E0.004
G1 X75.331 Y110.94 E0.003
G1 X75.447 Y110.859 E0.004
G1 X75.549 Y110.757 E0.003
G1 X75.631 Y110.641 E0.004
G1 X75.692 Y110.511 E0.004
G1 X75.729 Y110.371 E0.003
G1 X75.74 Y110.237 E0.004
G1 Y107.348 E0.072
G1 X75.729 Y107.212 E0.003
G1 X75.682 Y107.055 E0.004
G1 X75.631 Y106.945 E0.003
G1 X75.549 Y106.828 E0.004
G1 X75.371 Y106.674 E0.006
G1 X75.489 Y106.695 E0.003
G1 X75.614 Y106.672 E0.003
G1 X75.719 Y106.611 E0.003
G1 X75.784 Y106.538 E0.002
G1 X75.83 Y106.452 E0.003
G1 X75.85 Y106.333 E0.003
;rapid-leaky
G0 X76.215 F7200
;bead-perimeter_inner
G1 X76.174 Y106.086 F2400 E0.006
G1 X76.046 Y105.867 E0.006
G1 X75.835 Y105.687 E0.007
G1 X75.512 Y105.601 E0.008
G1 X75.239 Y105.65 E0.007
G1 X75.022 Y105.775 E0.007
G1 X74.922 Y105.894 E0.004
G1 X74.696 Y105.687 E0.007
G1 X74.372 Y105.6 E0.009
G1 X74.103 Y105.65 E0.006
G1 X73.884 Y105.773 E0.007
G1 X73.721 Y105.968 E0.006
G1 X73.633 Y106.204 E0.006
G1 Y106.441 E0.006
G1 X73.682 Y106.607 E0.004
G1 X73.79 Y106.799 E0.006
G1 X73.854 Y106.852 E0.002
G1 X73.808 Y106.951 E0.003
G1 X73.755 Y107.15 E0.005
G1 X73.738 Y107.33 E0.004
G1 Y110.255 E0.073
G1 X73.755 Y110.436 E0.005
G1 X73.808 Y110.635 E0.005
G1 X73.905 Y110.835 E0.006
G1 X73.844 Y110.876 E0.001
G1 X73.708 Y111.113 E0.007
G1 X73.666 Y111.353 E0.006
G1 X73.709 Y111.591 E0.006
G1 X73.843 Y111.824 E0.007
G1 X74.103 Y112.007 E0.008
G1 X74.367 Y112.054 E0.007
G1 X74.607 Y112.012 E0.006
G1 X74.82 Y111.889 E0.006
G1 X74.916 Y111.774 E0.004
G1 X74.945 Y111.824 E0.001
G1 X75.205 Y112.007 E0.008
G1 X75.469 Y112.054 E0.007
G1 X75.73 Y112.008 E0.006
G1 X75.984 Y111.837 E0.008
G1 X76.128 Y111.597 E0.007
G1 X76.172 Y111.353 E0.006
G1 X76.13 Y111.113 E0.006
G1 X76.01 Y110.903 E0.006
G1 X75.932 Y110.837 E0.003
G1 X76.031 Y110.635 E0.005
G1 X76.085 Y110.433 E0.006
G1 X76.1 Y110.252 E0.004
G1 Y107.333 E0.073
G1 X76.084 Y107.146 E0.005
G1 X75.985 Y106.853 E0.007
G1 X76.082 Y106.746 E0.004
G1 X76.175 Y106.568 E0.005
G1 X76.215 Y106.333 E0.006
G1 F2100 E-0.5
;rapid-dry
G0 X79.424 Y103.13 F7200
G1 F2100 E0.5
;bead-perimeter_inner
G1 X79.44 Y103.397 F2400 E0.006
G1 Y108.081 E0.117
G1 X79.234 Y108.036 E0.006
G1 X78.963 Y108.084 E0.006
G1 X78.753 Y108.203 E0.006
G1 X78.623 Y108.333 E0.005
G1 X78.501 Y108.543 E0.006
G1 X78.454 Y108.808 E0.007
G1 X78.501 Y109.071 E0.006
G1 X78.643 Y109.314 E0.008
G1 X78.898 Y109.507 E0.007
G1 X79.212 Y109.579 E0.009
G1 X79.44 Y109.536 E0.005
G1 Y114.103 E0.114
G1 X79.424 Y114.37 E0.007
G1 X79.379 Y114.615 E0.006
G1 X79.305 Y114.854 E0.006
G1 X79.202 Y115.081 E0.007
G1 X79.072 Y115.295 E0.006
G1 X78.919 Y115.492 E0.006
G1 X78.742 Y115.669 E0.006
G1 X78.545 Y115.822 E0.007
G1 X78.331 Y115.952 E0.006
G1 X78.104 Y116.055 E0.006
G1 X77.865 Y116.129 E0.006
G1 X77.62 Y116.174 E0.006
G1 X77.353 Y116.19 E0.007
G1 X75.74 E0.04
G1 X75.699 Y115.96 E0.006
G1 X75.577 Y115.75 E0.006
G1 X75.451 Y115.624 E0.005
G1 X75.241 Y115.502 E0.006
G1 X74.976 Y115.455 E0.006
G1 X74.7 Y115.504 E0.007
G1 X74.43 Y115.679 E0.008
G1 X74.257 Y115.946 E0.008
G1 X74.215 Y116.19 E0.007
G1 X72.647 E0.039
G1 X72.38 Y116.174 E0.006
G1 X72.134 Y116.129 E0.007
G1 X71.896 Y116.055 E0.006
G1 X71.669 Y115.952 E0.006
G1 X71.455 Y115.822 E0.006
G1 X71.258 Y115.669 E0.007
G1 X71.081 Y115.492 E0.006
G1 X70.928 Y115.295 E0.006
G1 X70.798 Y115.081 E0.006
G1 X70.696 Y114.854 E0.006
G1 X70.621 Y114.615 E0.007
G1 X70.576 Y114.37 E0.006
G1 X70.56 Y114.103 E0.007
G1 X70.561 Y109.569 E0.113
G1 X70.604 Y109.579 E0.001
G1 X70.879 Y109.527 E0.007
G1 X71.121 Y109.39 E0.007
G1 X71.318 Y109.13 E0.008
G1 X71.385 Y108.819 E0.008
G1 X71.338 Y108.546 E0.007
G1 X71.219 Y108.336 E0.006
G1 X71.092 Y108.21 E0.004
G1 X70.909 Y108.098 E0.006
G1 X70.626 Y108.036 E0.007
G1 X70.562 Y108.048 E0.001
G1 X70.563 Y103.34 E0.118
G1 X70.576 Y103.131 E0.005
G1 X70.621 Y102.886 E0.006
G1 X70.696 Y102.647 E0.006
G1 X70.798 Y102.419 E0.007
G1 X70.928 Y102.205 E0.006
G1 X71.081 Y102.008 E0.006
G1 X71.258 Y101.831 E0.006
G1 X71.455 Y101.678 E0.007
G1 X71.669 Y101.548 E0.006
G1 X71.896 Y101.446 E0.006
G1 X72.135 Y101.371 E0.006
G1 X72.38 Y101.326 E0.007
G1 X72.647 Y101.31 E0.006
G1 X74.211 E0.039
G1 X74.202 Y101.359 E0.002
G1 X74.249 Y101.624 E0.006
G1 X74.371 Y101.834 E0.006
G1 X74.497 Y101.96 E0.005
G1 X74.707 Y102.082 E0.006
G1 X74.972 Y102.129 E0.006
G1 X75.248 Y102.08 E0.008
G1 X75.518 Y101.905 E0.008
G1 X75.691 Y101.638 E0.007
G1 X75.74 Y101.359 E0.008
G1 X75.731 Y101.31 E0.001
G1 X77.353 E0.04
G1 X77.62 Y101.326 E0.007
G1 X77.887 Y101.378 E0.007
G1 X78.104 Y101.445 E0.005
G1 X78.331 Y101.548 E0.007
G1 X78.545 Y101.678 E0.006
G1 X78.742 Y101.831 E0.006
G1 X78.919 Y102.008 E0.006
G1 X79.072 Y102.205 E0.007
G1 X79.202 Y102.419 E0.006
G1 X79.305 Y102.647 E0.006
G1 X79.379 Y102.886 E0.006
G1 X79.424 Y103.13 E0.006
G1 F2100 E-0.5
;rapid-dry
G0 Z0.55 F7200
G0 X76.683 Y121.95 F7200
G0 Z0.35 F7200
G1 F2100 E0.5
;bead-perimeter_outer
G1 Y124.282 F1800 E0.059
G1 X70.2 E0.161
G1 Y121.95 E0.058
G1 X76.683 E0.162
;rapid-leaky
G0 X76.323 Y122.31 F7200
;bead-perimeter_inner
G1 Y123.922 F2400 E0.04
G1 X70.56 E0.144
G1 Y122.31 E0.04
G1 X76.323 E0.144
G1 F2100 E-0.5
;rapid-dry
G0 Z0.55 F7200
G0 X76.683 Y128.95 F7200
G0 Z0.35 F7200
G1 F2100 E0.5
;bead-perimeter_outer
G1 Y131.282 F1800 E0.058
G1 X70.2 E0.162
G1 Y128.95 E0.058
G1 X76.683 E0.162
;rapid-leaky
G0 X76.323 Y129.31 F7200
;bead-perimeter_inner
G1 Y130.922 F2400 E0.04
G1 X70.56 E0.144
G1 Y129.31 E0.04
G1 X76.323 E0.144
G1 F2100 E-0.5
;rapid-dry
G0 Z0.55 F7200
G0 X73.708 Y136.999 F7200
G0 Z0.35 F7200
G1 F2100 E0.5
;bead-perimeter_outer
G1 X73.706 Y137.386 F1800 E0.01
G1 X73.698 Y139.019 E0.04
G1 X71.944 Y140.019 E0.051
G1 X70.201 Y139.001 E0.05
G1 X70.21 Y136.982 E0.05
G1 X71.965 Y135.981 E0.051
G1 X73.708 Y136.999 E0.05
G1 F2100 E-0.5
;rapid-dry
G0 X73.427 Y137.15 F7200
G1 F2100 E0.5
;bead-perimeter_outer
G1 X73.272 Y136.924 F1800 E0.007
G1 X73.082 Y136.727 E0.007
G1 X72.863 Y136.562 E0.007
G1 X72.62 Y136.435 E0.006
G1 X72.361 Y136.349 E0.007
G1 X72.091 Y136.305 E0.007
G1 X71.818 E0.007
G1 X71.547 Y136.349 E0.007
G1 X71.287 Y136.435 E0.007
G1 X71.046 Y136.562 E0.006
G1 X70.827 Y136.727 E0.007
G1 X70.637 Y136.924 E0.007
G1 X70.481 Y137.15 E0.007
G1 X70.364 Y137.397 E0.007
G1 X70.288 Y137.66 E0.006
G1 X70.254 Y137.932 E0.007
G1 X70.266 Y138.205 E0.007
G1 X70.32 Y138.473 E0.007
G1 X70.418 Y138.729 E0.007
G1 X70.555 Y138.966 E0.007
G1 X70.727 Y139.178 E0.006
G1 X70.933 Y139.359 E0.007
G1 X71.164 Y139.506 E0.007
G1 X71.415 Y139.613 E0.007
G1 X71.682 Y139.679 E0.007
G1 X71.955 Y139.701 E0.007
G1 X72.246 Y139.675 E0.007
G1 X72.493 Y139.613 E0.006
G1 X72.744 Y139.506 E0.007
G1 X72.975 Y139.359 E0.007
G1 X73.181 Y139.178 E0.007
G1 X73.354 Y138.966 E0.007
G1 X73.491 Y138.728 E0.006
G1 X73.594 Y138.449 E0.008
G1 X73.646 Y138.162 E0.007
G1 X73.653 Y137.93 E0.006
G1 X73.628 Y137.701 E0.006
G1 X73.545 Y137.398 E0.007
G1 X73.427 Y137.15 E0.007
G1 F2100 E-0.5
;rapid-dry
G0 Z0.55 F7200
G0 X70.8 Y130.336 F7200
G0 Z0.35 F7200
G1 F2100 E0.5
;bead-solid_infill
G1 X71.146 Y130.682 F1800 E0.013
G1 X71.712 E0.014
G1 X70.8 Y129.77 E0.032
G1 Y129.55 E0.005
G1 X71.145 E0.009
G1 X72.277 Y130.682 E0.04
G1 X72.843 E0.014
G1 X71.711 Y129.55 E0.04
G1 X72.277 E0.014
G1 X73.409 Y130.682 E0.04
G1 X73.974 E0.014
G1 X72.842 Y129.55 E0.04
G1 X73.408 E0.014
G1 X74.54 Y130.682 E0.04
G1 X75.106 E0.014
G1 X73.974 Y129.55 E0.04
G1 X74.54 E0.014
G1 X75.672 Y130.682 E0.04
G1 X76.083 E0.01
G1 Y130.528 E0.004
G1 X75.105 Y129.55 E0.035
G1 X75.671 E0.014
G1 X76.083 Y129.962 E0.014
G1 F2100 E-0.5
;rapid-dry
G0 Z0.55 F7200
G0 X76.025 Y122.55 F7200
G0 Z0.35 F7200
G1 F2100 E0.5
;bead-solid_infill
G1 X76.083 Y122.608 F1800 E0.002
G1 Y123.174 E0.015
G1 X75.459 Y122.55 E0.022
G1 X74.893 E0.014
G1 X76.025 Y123.682 E0.04
G1 X75.46 E0.014
G1 X74.328 Y122.55 E0.04
G1 X73.762 E0.014
G1 X74.894 Y123.682 E0.04
G1 X74.328 E0.014
G1 X73.196 Y122.55 E0.04
G1 X72.631 E0.014
G1 X73.763 Y123.682 E0.04
G1 X73.197 E0.014
G1 X72.065 Y122.55 E0.04
G1 X71.499 E0.014
G1 X72.631 Y123.682 E0.04
G1 X72.066 E0.014
G1 X70.934 Y122.55 E0.04
G1 X70.8 E0.003
G1 Y122.982 E0.011
G1 X71.5 Y123.682 E0.025
G1 X70.934 E0.014
G1 X70.8 Y123.548 E0.005
G1 F2100 E-0.5
;rapid-dry
G0 Z0.55 F7200
G0 X70.853 Y114.55 F7200
G0 Z0.35 F7200
G1 F2100 E0.5
;bead-solid_infill
G1 X72.2 Y115.897 F1800 E0.047
G1 X72.409 Y115.935 E0.005
G1 X72.654 Y115.95 E0.007
G1 X72.819 E0.004
G1 X70.8 Y113.931 E0.071
G1 Y113.366 E0.014
G1 X73.385 Y115.95 E0.091
G1 X73.95 E0.014
G1 X70.8 Y112.8 E0.111
G1 X70.801 Y112.235 E0.014
G1 X74.184 Y115.618 E0.12
G1 X74.256 Y115.506 E0.003
G1 X74.488 Y115.356 E0.007
G1 X70.801 Y111.669 E0.13
G1 Y111.104 E0.014
G1 X74.919 Y115.222 E0.145
G1 X74.976 Y115.212 E0.002
G1 X75.325 Y115.272 E0.009
G1 X75.599 Y115.432 E0.008
G1 X75.769 Y115.602 E0.006
G1 X75.929 Y115.876 E0.008
G1 X75.941 Y115.95 E0.001
G1 X76.213 E0.007
G1 X70.801 Y110.538 E0.191
G1 Y109.972 E0.014
G1 X76.779 Y115.95 E0.211
G1 X77.344 E0.014
G1 X71.082 Y109.688 E0.221
G1 X71.091 Y109.683
G1 X71.282 Y109.575 E0.006
G1 X71.391 Y109.431 E0.004
G1 X73.446 Y111.486 E0.073
G1 X73.423 Y111.354 E0.003
G1 X73.479 Y111.03 E0.008
G1 X73.507 Y110.981 E0.002
G1 X71.58 Y109.054 E0.068
G1 X71.63 Y108.824 E0.006
G1 X71.57 Y108.478 E0.008
G1 X73.512 Y110.421 E0.069
G1 X73.498 Y110.266 E0.004
G1 Y109.841 E0.01
G1 X70.802 Y107.145 E0.096
G1 Y107.71 E0.014
G1 X70.953 Y107.862 E0.005
G1 X70.802 Y106.579 E0.032
G1 X73.498 Y109.275 E0.095
G1 Y108.709 E0.014
G1 X70.802 Y106.014 E0.096
G1 Y105.448 E0.014
G1 X73.498 Y108.144 E0.095
G1 Y107.578 E0.014
G1 X70.803 Y104.883 E0.095
G1 Y104.317 E0.014
G1 X73.534 Y107.048 E0.096
G1 X73.536 Y107.039 E0.001
G1 X73.573 Y106.902 E0.003
G1 X73.551 Y106.863 E0.001
G1 X73.46 Y106.701 E0.005
G1 X73.393 Y106.476 E0.006
G1 Y106.342 E0.003
G1 X70.803 Y103.752 E0.091
G1 Y103.348 E0.011
G1 X70.812 Y103.195 E0.003
G1 X73.497 Y105.881 E0.095
G1 X73.51 Y105.846 E0.001
G1 X73.728 Y105.585 E0.008
G1 X73.754 Y105.571 E0.001
G1 X70.919 Y102.736 E0.1
G1 X70.92 Y102.732
G1 X71.011 Y102.531 E0.006
G1 X71.112 Y102.364 E0.005
G1 X74.146 Y105.398 E0.107
G1 X74.381 Y105.355 E0.006
G1 X74.773 Y105.459 E0.01
G1 X71.371 Y102.057 E0.12
G1 X71.417 Y102.012 E0.001
G1 X71.591 Y101.876 E0.006
G1 X71.693 Y101.814 E0.003
G1 X75.279 Y105.399 E0.126
G1 X75.522 Y105.355 E0.007
G1 X75.901 Y105.456 E0.009
G1 X72.084 Y101.638 E0.135
G1 X72.193 Y101.604 E0.003
G1 X72.409 Y101.565 E0.005
G1 X72.566 Y101.555 E0.004
G1 X78.871 Y107.86 E0.223
G1 X78.88 Y107.855
G1 X79.2 Y107.799 E0.008
G1 Y107.623 E0.004
G1 X73.127 Y101.55 E0.215
G1 X73.692 E0.014
G1 X79.2 Y107.058 E0.194
G1 Y106.492 E0.014
G1 X75.064 Y102.356 E0.146
G1 X75.338 Y102.308 E0.007
G1 X75.486 Y102.212 E0.004
G1 X79.2 Y105.926 E0.131
G1 Y105.361 E0.015
G1 X75.781 Y101.941 E0.12
G1 X75.919 Y101.727 E0.007
G1 X75.95 Y101.55 E0.004
G1 X75.955
G1 X79.2 Y104.795 E0.115
G1 Y104.229 E0.014
G1 X76.521 Y101.55 E0.094
G1 X77.087 E0.014
G1 X79.2 Y103.663 E0.075
G1 Y103.404 E0.006
G1 X79.185 Y103.159 E0.007
G1 X79.168 Y103.066 E0.002
G1 X77.685 Y101.583 E0.052
G1 F2100 E-0.5
;rapid-dry
G0 X76.34 Y105.895 F7200
G1 F2100 E0.5
;bead-solid_infill
G1 X78.531 Y108.086 F1800 E0.078
G1 X78.431 Y108.186 E0.003
G1 X78.296 Y108.417 E0.007
G1 X76.423 Y106.543 E0.066
G1 X76.406 Y106.646 E0.002
G1 X76.28 Y106.885 E0.007
G1 X76.258 Y106.909 E0.001
G1 X76.275 Y106.961 E0.001
G1 X78.23 Y108.916 E0.069
G1 X78.272 Y109.155 E0.006
G1 X78.46 Y109.476 E0.01
G1 X78.794 Y109.73 E0.01
G1 X79.118 Y109.804 E0.008
G1 X79.2 Y109.886 E0.003
G1 Y110.452 E0.014
G1 X76.34 Y107.592 E0.101
G1 Y108.157 E0.014
G1 X79.2 Y111.017 E0.101
G1 Y111.583 E0.014
G1 X76.34 Y108.723 E0.101
G1 Y109.289 E0.014
G1 X79.2 Y112.149 E0.101
G1 Y112.714 E0.014
G1 X76.34 Y109.854 E0.101
G1 Y110.262 E0.01
G1 X76.328 Y110.408 E0.004
G1 X79.2 Y113.28 E0.101
G1 Y113.846 E0.015
G1 X76.325 Y110.971 E0.101
G1 X76.359 Y111.03 E0.002
G1 X76.415 Y111.354 E0.008
G1 X76.374 Y111.586 E0.006
G1 X79.177 Y114.388 E0.099
G1 X79.146 Y114.557 E0.004
G1 X79.08 Y114.769 E0.005
G1 X79.052 Y114.83 E0.002
G1 X76.187 Y111.965 E0.101
G1 X76.162 Y112.006 E0.001
G1 X75.864 Y112.207 E0.009
G1 X78.849 Y115.192 E0.106
G1 X78.739 Y115.333 E0.004
G1 X78.583 Y115.488 E0.006
G1 X78.581 Y115.49
G1 X75.371 Y112.28 E0.113
G1 X75.11 Y112.234 E0.007
G1 X74.927 Y112.105 E0.005
G1 X74.833 Y112.159 E0.003
G1 X74.739 Y112.213 E0.003
G1 X78.248 Y115.722 E0.123
G1 X78.219 Y115.74 E0.001
G1 X78.019 Y115.83 E0.006
G1 X77.844 Y115.884 E0.004
G1 X74.234 Y112.274 E0.128
G1 F2100 E-0.5
;rapid-dry
G0 Z0.55 F7200
G0 X70.8 Y93.001 F7200
G0 Z0.35 F7200
G1 F2100 E0.5
;bead-solid_infill
G1 X71.338 Y93.539 F1800 E0.019
G1 X71.904 E0.014
G1 X70.8 Y92.435 E0.039
G1 Y91.869 E0.014
G1 X72.47 Y93.539 E0.059
G1 X73.035 E0.014
G1 X70.8 Y91.304 E0.079
G1 Y90.738 E0.014
G1 X73.601 Y93.539 E0.099
G1 X74.167 E0.014
G1 X70.8 Y90.172 E0.118
G1 Y89.607 E0.014
G1 X74.732 Y93.539 E0.139
G1 X75.298 E0.014
G1 X70.8 Y89.041 E0.159
G1 Y88.475 E0.014
G1 X75.864 Y93.539 E0.179
G1 X76.429 E0.014
G1 X70.8 Y87.91 E0.198
G1 Y87.344 E0.015
G1 X76.995 Y93.539 E0.218
G1 X77.561 E0.014
G1 X70.8 Y86.778 E0.239
G1 Y86.213 E0.014
G1 X78.126 Y93.539 E0.258
G1 X78.692 E0.014
G1 X70.8 Y85.647 E0.279
G1 Y85.081 E0.014
G1 X79.258 Y93.539 E0.298
G1 X79.824 E0.014
G1 X70.8 Y84.515 E0.319
G1 Y83.95 E0.014
G1 X80.389 Y93.539 E0.338
G1 X80.955 E0.014
G1 X70.8 Y83.384 E0.359
G1 Y82.818 E0.014
G1 X81.521 Y93.539 E0.378
G1 X82.086 E0.014
G1 X70.8 Y82.253 E0.398
G1 Y81.961 E0.007
G1 X71.074 E0.007
G1 X82.652 Y93.539 E0.409
G1 X83.218 E0.014
G1 X71.64 Y81.961 E0.408
G1 X72.205 E0.014
G1 X83.783 Y93.539 E0.409
G1 X84.349 E0.014
G1 X72.771 Y81.961 E0.408
G1 X73.337 E0.014
G1 X84.915 Y93.539 E0.409
G1 X85.48 E0.014
G1 X73.902 Y81.961 E0.408
G1 X74.468 E0.015
G1 X86.046 Y93.539 E0.408
G1 X86.612 E0.014
G1 X75.034 Y81.961 E0.409
G1 X75.599 E0.014
G1 X87.177 Y93.539 E0.408
G1 X87.743 E0.014
G1 X76.165 Y81.961 E0.409
G1 X76.731 E0.014
G1 X88.309 Y93.539 E0.408
G1 X88.875 E0.014
G1 X77.297 Y81.961 E0.409
G1 X77.862 E0.014
G1 X89.44 Y93.539 E0.408
G1 X90.006 E0.014
G1 X78.428 Y81.961 E0.409
G1 X78.994 E0.014
G1 X90.572 Y93.539 E0.408
G1 X91.137 E0.015
G1 X79.559 Y81.961 E0.408
G1 X80.125 E0.014
G1 X91.703 Y93.539 E0.409
G1 X92.269 E0.014
G1 X80.691 Y81.961 E0.408
G1 X81.256 E0.014
G1 X92.834 Y93.539 E0.409
G1 X93.4 E0.014
G1 X81.822 Y81.961 E0.408
G1 X82.388 E0.014
G1 X93.966 Y93.539 E0.409
G1 X94.531 E0.014
G1 X82.953 Y81.961 E0.408
G1 X83.519 E0.014
G1 X95.097 Y93.539 E0.409
G1 X95.663 E0.014
G1 X84.085 Y81.961 E0.408
G1 X84.65 E0.015
G1 X96.228 Y93.539 E0.408
G1 X96.794 E0.014
G1 X85.216 Y81.961 E0.409
G1 X85.782 E0.014
G1 X97.36 Y93.539 E0.408
G1 X97.925 E0.014
G1 X86.347 Y81.961 E0.409
G1 X86.913 E0.014
G1 X98.491 Y93.539 E0.408
G1 X99.057 E0.014
G1 X87.479 Y81.961 E0.409
G1 X88.045 E0.014
G1 X99.623 Y93.539 E0.408
G1 X100.188 E0.014
G1 X88.61 Y81.961 E0.409
G1 X89.176 E0.014
G1 X100.754 Y93.539 E0.408
G1 X101.32 E0.015
G1 X89.742 Y81.961 E0.408
G1 X90.307 E0.014
G1 X101.885 Y93.539 E0.409
G1 X102.451 E0.014
G1 X90.873 Y81.961 E0.408
G1 X91.439 E0.014
G1 X103.017 Y93.539 E0.409
G1 X103.582 E0.014
G1 X92.004 Y81.961 E0.408
G1 X92.57 E0.014
G1 X104.148 Y93.539 E0.409
G1 X104.714 E0.014
G1 X93.136 Y81.961 E0.408
G1 X93.701 E0.014
G1 X105.279 Y93.539 E0.409
G1 X105.845 E0.014
G1 X94.267 Y81.961 E0.408
G1 X94.833 E0.015
G1 X106.411 Y93.539 E0.408
G1 X106.976 E0.014
G1 X95.398 Y81.961 E0.409
G1 X95.964 E0.014
G1 X107.542 Y93.539 E0.408
G1 X108.108 E0.014
G1 X96.53 Y81.961 E0.409
G1 X97.096 E0.014
G1 X108.674 Y93.539 E0.408
G1 X109.239 E0.014
G1 X97.661 Y81.961 E0.409
G1 X98.227 E0.014
G1 X109.805 Y93.539 E0.408
G1 X110.371 E0.014
G1 X98.793 Y81.961 E0.409
G1 X99.358 E0.014
G1 X110.936 Y93.539 E0.408
G1 X111.502 E0.015
G1 X99.924 Y81.961 E0.408
G1 X100.49 E0.014
G1 X112.068 Y93.539 E0.409
G1 X112.633 E0.014
G1 X101.055 Y81.961 E0.408
G1 X101.621 E0.014
G1 X113.199 Y93.539 E0.409
G1 X113.765 E0.014
G1 X102.187 Y81.961 E0.408
G1 X102.752 E0.014
G1 X114.33 Y93.539 E0.409
G1 X114.896 E0.014
G1 X103.318 Y81.961 E0.408
G1 X103.884 E0.014
G1 X115.462 Y93.539 E0.409
G1 X116.027 E0.014
G1 X104.449 Y81.961 E0.408
G1 X105.015 E0.015
G1 X116.593 Y93.539 E0.408
G1 X117.159 E0.014
G1 X105.581 Y81.961 E0.409
G1 X106.146 E0.014
G1 X117.724 Y93.539 E0.408
G1 X118.29 E0.014
G1 X106.712 Y81.961 E0.409
G1 X107.278 E0.014
G1 X118.856 Y93.539 E0.408
G1 X119.422 E0.014
G1 X107.844 Y81.961 E0.409
G1 X108.409 E0.014
G1 X119.987 Y93.539 E0.408
G1 X120.553 E0.014
G1 X108.975 Y81.961 E0.409
G1 X109.541 E0.014
G1 X121.119 Y93.539 E0.408
G1 X121.684 E0.015
G1 X110.106 Y81.961 E0.408
G1 X110.672 E0.014
G1 X122.25 Y93.539 E0.409
G1 X122.816 E0.014
G1 X111.238 Y81.961 E0.408
G1 X111.803 E0.014
G1 X123.381 Y93.539 E0.409
G1 X123.947 E0.014
G1 X112.369 Y81.961 E0.408
G1 X112.935 E0.014
G1 X124.513 Y93.539 E0.409
G1 X125.078 E0.014
G1 X113.5 Y81.961 E0.408
G1 X114.066 E0.015
G1 X125.644 Y93.539 E0.408
G1 X126.21 E0.014
G1 X114.632 Y81.961 E0.408
G1 X115.197 E0.015
G1 X126.775 Y93.539 E0.408
G1 X127.341 E0.014
G1 X115.763 Y81.961 E0.409
G1 X116.329 E0.014
G1 X127.907 Y93.539 E0.408
G1 X128.473 E0.014
G1 X116.895 Y81.961 E0.409
G1 X117.46 E0.014
G1 X129.038 Y93.539 E0.408
G1 X129.604 E0.014
G1 X118.026 Y81.961 E0.409
G1 X118.592 E0.014
G1 X130.17 Y93.539 E0.408
G1 X130.735 E0.015
G1 X119.157 Y81.961 E0.408
G1 X119.723 E0.014
G1 X131.301 Y93.539 E0.409
G1 X131.867 E0.014
G1 X120.289 Y81.961 E0.408
G1 X120.854 E0.014
G1 X132.432 Y93.539 E0.409
G1 X132.998 E0.014
G1 X121.42 Y81.961 E0.408
G1 X121.986 E0.014
G1 X133.564 Y93.539 E0.409
G1 X134.129 E0.014
G1 X122.551 Y81.961 E0.408
G1 X123.117 E0.014
G1 X134.695 Y93.539 E0.409
G1 X135.261 E0.014
G1 X123.683 Y81.961 E0.408
G1 X124.248 E0.015
G1 X135.826 Y93.539 E0.408
G1 X136.392 E0.014
G1 X124.814 Y81.961 E0.409
G1 X125.38 E0.014
G1 X136.958 Y93.539 E0.408
G1 X137.523 E0.014
G1 X125.945 Y81.961 E0.409
G1 X126.511 E0.014
G1 X138.089 Y93.539 E0.408
G1 X138.655 E0.014
G1 X127.077 Y81.961 E0.409
G1 X127.643 E0.014
G1 X139.221 Y93.539 E0.408
G1 X139.786 E0.014
G1 X128.208 Y81.961 E0.409
G1 X128.774 E0.014
G1 X140.352 Y93.539 E0.408
G1 X140.918 E0.014
G1 X129.34 Y81.961 E0.409
G1 X129.905 E0.014
G1 X141.483 Y93.539 E0.409
G1 X142.049 E0.014
G1 X130.471 Y81.961 E0.408
G1 X131.037 E0.014
G1 X142.615 Y93.539 E0.409
G1 X143.18 E0.014
G1 X131.602 Y81.961 E0.408
G1 X132.168 E0.014
G1 X143.746 Y93.539 E0.409
G1 X144.312 E0.014
G1 X132.734 Y81.961 E0.408
G1 X133.299 E0.014
G1 X144.877 Y93.539 E0.409
G1 X145.443 E0.014
G1 X133.865 Y81.961 E0.408
G1 X134.431 E0.015
G1 X146.009 Y93.539 E0.408
G1 X146.574 E0.014
G1 X134.996 Y81.961 E0.409
G1 X135.562 E0.014
G1 X147.14 Y93.539 E0.408
G1 X147.706 E0.014
G1 X136.128 Y81.961 E0.409
G1 X136.693 E0.014
G1 X148.271 Y93.539 E0.408
G1 X148.837 E0.014
G1 X137.259 Y81.961 E0.409
G1 X137.825 E0.014
G1 X149.2 Y93.336 E0.401
G1 Y92.77 E0.014
G1 X138.391 Y81.961 E0.382
G1 X138.956 E0.014
G1 X149.2 Y92.205 E0.361
G1 Y91.639 E0.014
G1 X139.522 Y81.961 E0.342
G1 X140.088 E0.014
G1 X149.2 Y91.073 E0.321
G1 Y90.508 E0.014
G1 X140.653 Y81.961 E0.302
G1 X141.219 E0.014
G1 X149.2 Y89.942 E0.281
G1 Y89.376 E0.015
G1 X141.785 Y81.961 E0.261
G1 X142.35 E0.014
G1 X149.2 Y88.811 E0.242
G1 Y88.245 E0.014
G1 X142.916 Y81.961 E0.222
G1 X143.482 E0.014
G1 X149.2 Y87.679 E0.202
G1 Y87.114 E0.014
G1 X144.047 Y81.961 E0.181
G1 X144.613 E0.015
G1 X149.2 Y86.548 E0.161
G1 Y85.982 E0.014
G1 X145.179 Y81.961 E0.142
G1 X145.744 E0.014
G1 X149.2 Y85.417 E0.122
G1 Y84.851 E0.014
G1 X146.31 Y81.961 E0.102
G1 X146.876 E0.015
G1 X149.2 Y84.285 E0.082
G1 Y83.719 E0.014
G1 X147.442 Y81.961 E0.062
G1 X148.007 E0.014
G1 X149.2 Y83.154 E0.042
G1 Y82.588 E0.014
G1 X148.573 Y81.961 E0.022
G1 X149.139 E0.014
G1 X149.2 Y82.022 E0.002
G1 F2100 E-0.5
;LAYER:3
M107
;rapid-dry
G0 X150.45 Y82.341 Z0.5 F7200
G1 F2100 E0.5
;bead-support
G1 X152.258 Y80.533 F3300 E0.064
G1 X156.975 Y85.25 E0.167
G1 X152.258 Y89.967 E0.166
G1 X150.45 Y88.159 E0.064
G1 Y82.341 E0.145
G1 F2100 E-0.5
G0 X151.157 Y81.634 F2400
G0 X150.45 Y82.341 F2400
;rapid-leaky
G0 X152.005 Y81.125 F7200
G1 F2100 E0.5
;bead-support
G1 X152.511 F3300 E0.013
G1 X152.911 Y81.525 E0.014
G1 X151.605 E0.032
G1 X151.205 Y81.925 E0.014
G1 X153.311 E0.053
G1 X153.711 Y82.325 E0.014
G1 X150.805 E0.072
G1 X150.69 Y82.44 E0.004
G1 Y82.725 E0.008
G1 X154.111 E0.085
G1 X154.511 Y83.125 E0.014
G1 X150.69 E0.095
G1 Y83.525 E0.01
G1 X154.911 E0.106
G1 X155.311 Y83.925 E0.014
G1 X150.69 E0.115
G1 Y84.325 E0.01
G1 X155.711 E0.125
G1 X156.111 Y84.725 E0.014
G1 X150.69 E0.136
G1 Y85.125 E0.009
G1 X156.511 E0.146
G1 X156.636 Y85.25 E0.004
G1 X156.361 Y85.525 E0.01
G1 X150.69 E0.141
G1 Y85.925 E0.01
G1 X155.961 E0.132
G1 X155.561 Y86.325 E0.014
G1 X150.69 E0.121
G1 Y86.725 E0.01
G1 X155.161 E0.112
G1 X154.761 Y87.125 E0.014
G1 X150.69 E0.101
G1 Y87.525 E0.01
G1 X154.361 E0.092
G1 X153.961 Y87.925 E0.014
G1 X150.69 E0.082
G1 Y88.06 E0.003
G1 X150.955 Y88.325 E0.009
G1 X153.561 E0.065
G1 X153.161 Y88.725 E0.015
G1 X151.355 E0.045
G1 X151.755 Y89.125 E0.014
G1 X152.761 E0.025
G1 X152.361 Y89.525 E0.014
G1 X152.155 E0.005
G1 F2100 E-0.5
G0 X152.361 F2400
G0 X152.761 Y89.125 F2400
G0 X152.532 F2400
G0 X152.761 F2400
G0 X152.361 Y89.525 F2400
G0 X152.155 F2400
;rapid-dry
G0 Z0.7 F7200
G0 X78.973 Y108.492 F7200
G0 Z0.5 F7200
G1 F2100 E0.5
;bead-perimeter_outer
G1 X78.91 Y108.555 F1800 E0.002
G1 X78.844 Y108.668 E0.004
G1 X78.82 Y108.807 E0.003
G1 X78.844 Y108.945 E0.004
G1 X78.914 Y109.065 E0.003
G1 X79.022 Y109.156 E0.004
G1 X79.143 Y109.199 E0.003
G1 X79.23 Y109.209 E0.002
G1 X79.362 Y109.184 E0.003
G1 X79.482 Y109.116 E0.004
G1 X79.566 Y109.015 E0.003
G1 X79.603 Y108.936 E0.002
G1 X79.626 Y108.807 E0.003
G1 X79.602 Y108.668 E0.004
G1 X79.532 Y108.548 E0.003
G1 X79.424 Y108.457 E0.004
G1 X79.301 Y108.413 E0.003
G1 X79.214 Y108.405 E0.002
G1 X79.086 Y108.428 E0.004
G1 X78.973 Y108.492 E0.003
G1 F2100 E-0.5
;rapid-dry
G0 X75.31 Y111.054 F7200
G1 F2100 E0.5
;bead-perimeter_outer
G1 X75.212 Y111.135 F1800 E0.003
G1 X75.152 Y111.241 E0.003
G1 X75.133 Y111.367 E0.003
G1 X75.174 Y111.513 E0.004
G1 X75.254 Y111.61 E0.003
G1 X75.36 Y111.67 E0.003
G1 X75.475 Y111.688 E0.003
G1 X75.587 Y111.667 E0.003
G1 X75.698 Y111.603 E0.003
G1 X75.787 Y111.47 E0.004
G1 X75.806 Y111.347 E0.003
G1 X75.784 Y111.227 E0.003
G1 X75.694 Y111.099 E0.004
G1 X75.581 Y111.034 E0.003
G1 X75.457 Y111.015 E0.004
G1 X75.31 Y111.054 E0.003
G1 F2100 E-0.5
;rapid-dry
G0 X74.355 Y111.015 F7200
G1 F2100 E0.5
;bead-perimeter_outer
G1 X74.208 Y111.054 F1800 E0.004
G1 X74.11 Y111.135 E0.003
G1 X74.05 Y111.241 E0.003
G1 X74.031 Y111.367 E0.004
G1 X74.072 Y111.513 E0.003
G1 X74.152 Y111.61 E0.003
G1 X74.258 Y111.67 E0.003
G1 X74.373 Y111.688 E0.003
G1 X74.485 Y111.667 E0.003
G1 X74.587 Y111.607 E0.003
G1 X74.668 Y111.508 E0.003
G1 X74.709 Y111.348 E0.004
G1 X74.665 Y111.189 E0.005
G1 X74.583 Y111.094 E0.003
G1 X74.479 Y111.034 E0.003
G1 X74.355 Y111.015 E0.003
G1 F2100 E-0.5
;rapid-dry
G0 X70.606 Y108.405 F7200
G1 F2100 E0.5
;bead-perimeter_outer
G1 X70.478 Y108.428 F1800 E0.003
G1 X70.365 Y108.492 E0.003
G1 X70.302 Y108.555 E0.003
G1 X70.236 Y108.668 E0.003
G1 X70.212 Y108.807 E0.003
G1 X70.236 Y108.945 E0.004
G1 X70.307 Y109.065 E0.003
G1 X70.408 Y109.151 E0.004
G1 X70.487 Y109.186 E0.002
G1 X70.615 Y109.211 E0.003
G1 X70.754 Y109.184 E0.004
G1 X70.873 Y109.117 E0.003
G1 X70.966 Y109.008 E0.004
G1 X71.009 Y108.883 E0.003
G1 X71.017 Y108.799 E0.002
G1 X70.994 Y108.67 E0.003
G1 X70.925 Y108.548 E0.004
G1 X70.815 Y108.456 E0.003
G1 X70.693 Y108.413 E0.004
G1 X70.606 Y108.405 E0.002
G1 F2100 E-0.5
;rapid-dry
G0 X74.227 Y105.993 F7200
G1 F2100 E0.5
;bead-perimeter_outer
G1 X74.118 Y106.055 F1800 E0.003
G1 X74.031 Y106.158 E0.003
G1 X73.986 Y106.317 E0.004
G1 X74.01 Y106.455 E0.004
G1 X74.076 Y106.572 E0.003
G1 X74.209 Y106.668 E0.004
G1 X74.348 Y106.696 E0.004
G1 X74.468 Y106.674 E0.003
G1 X74.391 Y106.727 E0.002
G1 X74.29 Y106.828 E0.004
G1 X74.208 Y106.946 E0.003
G1 X74.147 Y107.075 E0.004
G1 X74.11 Y107.214 E0.003
G1 X74.098 Y107.347 E0.004
G1 Y110.238 E0.072
G1 X74.11 Y110.372 E0.003
G1 X74.147 Y110.511 E0.004
G1 X74.208 Y110.641 E0.003
G1 X74.29 Y110.757 E0.004
G1 X74.391 Y110.859 E0.004
G1 X74.509 Y110.941 E0.003
G1 X74.638 Y111.002 E0.004
G1 X74.78 Y111.04 E0.003
G1 X75.062 Y111.039 E0.007
G1 X75.201 Y111.002 E0.004
G1 X75.331 Y110.941 E0.004
G1 X75.45 Y110.856 E0.003
G1 X75.631 Y110.641 E0.007
G1 X75.692 Y110.511 E0.004
G1 X75.729 Y110.371 E0.003
G1 X75.74 Y110.237 E0.004
G1 Y107.348 E0.072
G1 X75.729 Y107.211 E0.003
G1 X75.631 Y106.945 E0.007
G1 X75.549 Y106.828 E0.004
G1 X75.368 Y106.672 E0.006
G1 X75.488 Y106.696 E0.003
G1 X75.614 Y106.672 E0.003
G1 X75.728 Y106.606 E0.003
G1 X75.823 Y106.474 E0.004
G1 X75.85 Y106.343 E0.004
G1 X75.83 Y106.211 E0.003
G1 X75.766 Y106.101 E0.003
G1 X75.663 Y106.013 E0.004
G1 X75.497 Y105.969 E0.004
G1 X75.364 Y105.993 E0.003
G1 X75.257 Y106.055 E0.003
G1 X75.176 Y106.152 E0.004
G1 X75.129 Y106.277 E0.003
G1 X75.142 Y106.44 E0.004
G1 X75.213 Y106.57 E0.004
G1 X75.29 Y106.626 E0.002
G1 X75.201 Y106.584 E0.002
G1 X75.062 Y106.547 E0.004
G1 X74.919 Y106.534 E0.004
G1 X74.772 Y106.548 E0.003
G1 X74.577 Y106.612 E0.005
G1 X74.684 Y106.474 E0.005
G1 X74.713 Y106.335 E0.003
G1 X74.689 Y106.208 E0.004
G1 X74.627 Y106.101 E0.003
G1 X74.524 Y106.013 E0.003
G1 X74.358 Y105.969 E0.004
G1 X74.227 Y105.993 E0.004
;rapid-leaky
G0 X74.103 Y105.65 F7200
;bead-perimeter_inner
G1 X73.884 Y105.773 F2400 E0.006
G1 X73.706 Y105.986 E0.007
G1 X73.618 Y106.297 E0.008
G1 X73.665 Y106.577 E0.007
G1 X73.801 Y106.818 E0.007
G1 X73.853 Y106.855 E0.001
G1 X73.808 Y106.951 E0.003
G1 X73.755 Y107.15 E0.005
G1 X73.738 Y107.33 E0.005
G1 Y110.255 E0.073
G1 X73.755 Y110.436 E0.004
G1 X73.808 Y110.635 E0.005
G1 X73.906 Y110.837 E0.006
G1 X73.83 Y110.9 E0.002
G1 X73.704 Y111.121 E0.007
G1 X73.663 Y111.389 E0.007
G1 X73.746 Y111.685 E0.007
G1 X73.917 Y111.89 E0.007
G1 X74.137 Y112.015 E0.006
G1 X74.377 Y112.053 E0.006
G1 X74.612 Y112.01 E0.006
G1 X74.826 Y111.885 E0.006
G1 X74.919 Y111.77 E0.004
G1 X75.019 Y111.89 E0.004
G1 X75.239 Y112.015 E0.006
G1 X75.479 Y112.053 E0.006
G1 X75.714 Y112.01 E0.006
G1 X75.95 Y111.872 E0.007
G1 X76.13 Y111.604 E0.008
G1 X76.171 Y111.343 E0.007
G1 X76.124 Y111.086 E0.006
G1 X75.941 Y110.825 E0.008
G1 X76.031 Y110.635 E0.005
G1 X76.085 Y110.433 E0.006
G1 X76.1 Y110.252 E0.004
G1 Y107.333 E0.073
G1 X76.084 Y107.143 E0.005
G1 X75.988 Y106.86 E0.007
G1 X76.16 Y106.623 E0.008
G1 X76.216 Y106.352 E0.006
G1 X76.176 Y106.089 E0.007
G1 X76.046 Y105.867 E0.007
G1 X75.835 Y105.687 E0.006
G1 X75.512 Y105.601 E0.009
G1 X75.239 Y105.65 E0.007
G1 X75.022 Y105.775 E0.006
G1 X74.922 Y105.894 E0.004
G1 X74.696 Y105.687 E0.007
G1 X74.372 Y105.6 E0.009
G1 X74.103 Y105.65 E0.007
G1 F2100 E-0.5
;rapid-dry
G0 X74.727 Y101.041 F7200
G1 F2100 E0.5
;bead-perimeter_outer
G1 X74.664 Y101.101 F1800 E0.002
G1 X74.592 Y101.221 E0.003
G1 X74.568 Y101.36 E0.004
G1 X74.592 Y101.499 E0.003
G1 X74.658 Y101.612 E0.004
G1 X74.719 Y101.673 E0.002
G1 X74.832 Y101.739 E0.003
G1 X74.971 Y101.763 E0.004
G1 X75.1 Y101.74 E0.003
G1 X75.178 Y101.704 E0.002
G1 X75.272 Y101.628 E0.003
G1 X75.349 Y101.501 E0.004
G1 X75.374 Y101.36 E0.003
G1 X75.35 Y101.222 E0.004
G1 X75.28 Y101.102 E0.003
G1 X75.18 Y101.017 E0.003
G1 X75.1 Y100.98 E0.003
G1 X74.971 Y100.957 E0.003
G1 X74.834 Y100.981 E0.003
G1 X74.727 Y101.041 E0.003
G1 F2100 E-0.5
;rapid-dry
G0 X72.049 Y101.021 F7200
G1 F2100 E0.5
;bead-perimeter_outer
G1 X72.337 Y100.968 F1800 E0.008
G1 X72.636 Y100.95 E0.007
G1 X77.364 E0.118
G1 X77.663 Y100.968 E0.008
G1 X77.951 Y101.021 E0.007
G1 X78.232 Y101.108 E0.007
G1 X78.499 Y101.228 E0.008
G1 X78.75 Y101.381 E0.007
G1 X78.981 Y101.561 E0.007
G1 X79.189 Y101.769 E0.008
G1 X79.369 Y102 E0.007
G1 X79.522 Y102.251 E0.007
G1 X79.642 Y102.519 E0.008
G1 X79.729 Y102.799 E0.007
G1 X79.782 Y103.087 E0.007
G1 X79.8 Y103.386 E0.008
G1 Y114.114 E0.267
G1 X79.782 Y114.413 E0.008
G1 X79.729 Y114.701 E0.007
G1 X79.642 Y114.982 E0.007
G1 X79.522 Y115.249 E0.008
G1 X79.369 Y115.5 E0.007
G1 X79.189 Y115.731 E0.007
G1 X78.981 Y115.939 E0.008
G1 X78.75 Y116.119 E0.007
G1 X78.499 Y116.272 E0.007
G1 X78.232 Y116.392 E0.008
G1 X77.951 Y116.479 E0.007
G1 X77.663 Y116.532 E0.007
G1 X77.364 Y116.55 E0.008
G1 X75.208 E0.053
G1 X75.284 Y116.483 E0.003
G1 X75.356 Y116.363 E0.003
G1 X75.38 Y116.224 E0.004
G1 X75.356 Y116.085 E0.004
G1 X75.29 Y115.972 E0.003
G1 X75.229 Y115.911 E0.002
G1 X75.116 Y115.845 E0.003
G1 X74.977 Y115.821 E0.004
G1 X74.848 Y115.844 E0.003
G1 X74.77 Y115.88 E0.002
G1 X74.676 Y115.956 E0.003
G1 X74.599 Y116.083 E0.004
G1 X74.574 Y116.224 E0.003
G1 X74.598 Y116.362 E0.004
G1 X74.669 Y116.482 E0.003
G1 X74.748 Y116.55 E0.003
G1 X72.636 E0.053
G1 X72.337 Y116.532 E0.007
G1 X72.049 Y116.479 E0.007
G1 X71.768 Y116.392 E0.008
G1 X71.501 Y116.272 E0.007
G1 X71.25 Y116.119 E0.007
G1 X71.019 Y115.939 E0.008
G1 X70.811 Y115.731 E0.007
G1 X70.631 Y115.5 E0.007
G1 X70.478 Y115.249 E0.008
G1 X70.358 Y114.982 E0.007
G1 X70.271 Y114.701 E0.007
G1 X70.218 Y114.413 E0.008
G1 X70.2 Y114.114 E0.007
G1 X70.205 Y103.3 E0.27
G1 X70.218 Y103.087 E0.005
G1 X70.271 Y102.799 E0.007
G1 X70.358 Y102.519 E0.008
G1 X70.478 Y102.251 E0.007
G1 X70.631 Y102 E0.007
G1 X70.811 Y101.769 E0.008
G1 X71.019 Y101.561 E0.007
G1 X71.25 Y101.381 E0.007
G1 X71.501 Y101.228 E0.008
G1 X71.769 Y101.108 E0.007
G1 X72.049 Y101.021 E0.007
;rapid-leaky
G0 X72.135 Y101.371 F7200
;bead-perimeter_inner
G1 X72.38 Y101.326 F2400 E0.007
G1 X72.647 Y101.31 E0.006
G1 X74.211 E0.039
G1 X74.202 Y101.359 E0.002
G1 X74.249 Y101.624 E0.006
G1 X74.371 Y101.834 E0.006
G1 X74.497 Y101.96 E0.005
G1 X74.707 Y102.082 E0.006
G1 X74.972 Y102.129 E0.007
G1 X75.209 Y102.087 E0.006
G1 X75.371 Y102.011 E0.004
G1 X75.546 Y101.869 E0.006
G1 X75.692 Y101.631 E0.007
G1 X75.74 Y101.359 E0.006
G1 X75.731 Y101.31 E0.002
G1 X77.353 E0.04
G1 X77.62 Y101.326 E0.007
G1 X77.865 Y101.371 E0.006
G1 X78.104 Y101.446 E0.006
G1 X78.331 Y101.548 E0.007
G1 X78.545 Y101.678 E0.006
G1 X78.742 Y101.831 E0.006
G1 X78.919 Y102.008 E0.006
G1 X79.072 Y102.205 E0.006
G1 X79.202 Y102.419 E0.007
G1 X79.305 Y102.647 E0.006
G1 X79.379 Y102.886 E0.006
G1 X79.424 Y103.13 E0.006
G1 X79.44 Y103.397 E0.007
G1 Y108.08 E0.117
G1 X79.377 Y108.058 E0.002
G1 X79.198 Y108.043 E0.004
G1 X78.963 Y108.084 E0.006
G1 X78.753 Y108.203 E0.006
G1 X78.623 Y108.333 E0.005
G1 X78.501 Y108.543 E0.006
G1 X78.454 Y108.808 E0.006
G1 X78.501 Y109.071 E0.007
G1 X78.635 Y109.3 E0.007
G1 X78.839 Y109.474 E0.006
G1 X79.061 Y109.552 E0.006
G1 X79.244 Y109.573 E0.005
G1 X79.44 Y109.536 E0.005
G1 Y114.103 E0.114
G1 X79.424 Y114.37 E0.006
G1 X79.379 Y114.615 E0.007
G1 X79.305 Y114.854 E0.006
G1 X79.202 Y115.081 E0.006
G1 X79.072 Y115.295 E0.006
G1 X78.919 Y115.492 E0.007
G1 X78.742 Y115.669 E0.006
G1 X78.545 Y115.822 E0.006
G1 X78.331 Y115.952 E0.006
G1 X78.104 Y116.055 E0.006
G1 X77.865 Y116.129 E0.007
G1 X77.62 Y116.174 E0.006
G1 X77.353 Y116.19 E0.007
G1 X75.74 E0.04
G1 X75.699 Y115.96 E0.006
G1 X75.577 Y115.75 E0.006
G1 X75.451 Y115.624 E0.004
G1 X75.241 Y115.502 E0.006
G1 X74.976 Y115.455 E0.007
G1 X74.739 Y115.497 E0.006
G1 X74.577 Y115.573 E0.004
G1 X74.402 Y115.715 E0.006
G1 X74.256 Y115.953 E0.007
G1 X74.215 Y116.19 E0.006
G1 X72.647 E0.039
G1 X72.38 Y116.174 E0.007
G1 X72.135 Y116.129 E0.006
G1 X71.896 Y116.055 E0.006
G1 X71.669 Y115.952 E0.006
G1 X71.455 Y115.822 E0.007
G1 X71.258 Y115.669 E0.006
G1 X71.081 Y115.492 E0.006
G1 X70.928 Y115.295 E0.006
G1 X70.798 Y115.081 E0.007
G1 X70.695 Y114.853 E0.006
G1 X70.621 Y114.615 E0.006
G1 X70.576 Y114.37 E0.006
G1 X70.56 Y114.103 E0.007
G1 X70.562 Y109.567 E0.113
G1 X70.614 Y109.577 E0.001
G1 X70.879 Y109.527 E0.007
G1 X71.107 Y109.398 E0.007
G1 X71.283 Y109.19 E0.007
G1 X71.364 Y108.96 E0.006
G1 X71.379 Y108.783 E0.004
G1 X71.338 Y108.546 E0.006
G1 X71.206 Y108.313 E0.007
G1 X70.996 Y108.139 E0.006
G1 X70.769 Y108.058 E0.006
G1 X70.563 Y108.048 E0.006
G1 X70.565 Y103.311 E0.118
G1 X70.576 Y103.131 E0.004
G1 X70.621 Y102.886 E0.007
G1 X70.696 Y102.647 E0.006
G1 X70.798 Y102.419 E0.006
G1 X70.928 Y102.205 E0.006
G1 X71.081 Y102.008 E0.006
G1 X71.258 Y101.831 E0.007
G1 X71.455 Y101.678 E0.006
G1 X71.669 Y101.548 E0.006
G1 X71.897 Y101.445 E0.006
G1 X72.135 Y101.371 E0.007
G1 F2100 E-0.5
;rapid-dry
G0 Z0.7 F7200
G0 X70.2 Y94.389 F7200
G0 Z0.5 F7200
G1 F2100 E0.5
;bead-perimeter_outer
G1 Y81.111 F1800 E0.331
G1 X149.8 E1.986
G1 Y94.389 E0.331
G1 X70.2 E1.985
;rapid-leaky
G0 X70.56 Y94.029 F7200
;bead-perimeter_inner
G1 Y81.471 F2400 E0.314
G1 X149.44 E1.967
G1 Y94.029 E0.314
G1 X70.56 E1.967
G1 F2100 E-0.5
;rapid-dry
G0 Z0.7 F7200
G0 X70.2 Y121.95 F7200
G0 Z0.5 F7200
G1 F2100 E0.5
;bead-perimeter_outer
G1 X76.683 F1800 E0.162
G1 Y124.282 E0.058
G1 X70.2 E0.162
G1 Y121.95 E0.058
;rapid-leaky
G0 X70.56 Y122.31 F7200
;bead-perimeter_inner
G1 X76.323 F2400 E0.144
G1 Y123.922 E0.04
G1 X70.56 E0.144
G1 Y122.31 E0.04
G1 F2100 E-0.5
;rapid-dry
G0 Z0.7 F7200
G0 X70.2 Y128.95 F7200
G0 Z0.5 F7200
G1 F2100 E0.5
;bead-perimeter_outer
G1 X76.683 F1800 E0.162
G1 Y131.282 E0.058
G1 X70.2 E0.162
G1 Y128.95 E0.058
;rapid-leaky
G0 X70.56 Y129.31 F7200
;bead-perimeter_inner
G1 X76.323 F2400 E0.143
G1 Y130.922 E0.041
G1 X70.56 E0.143
G1 Y129.31 E0.041
G1 F2100 E-0.5
;rapid-dry
G0 Z0.7 F7200
G0 X71.789 Y136.309 F7200
G0 Z0.5 F7200
G1 F2100 E0.5
;bead-perimeter_outer
G1 X71.547 Y136.349 F1800 E0.006
G1 X71.287 Y136.435 E0.007
G1 X71.046 Y136.562 E0.006
G1 X70.826 Y136.728 E0.007
G1 X70.62 Y136.948 E0.008
G1 X70.481 Y137.15 E0.006
G1 X70.364 Y137.397 E0.007
G1 X70.288 Y137.661 E0.007
G1 X70.256 Y137.961 E0.007
G1 X70.266 Y138.205 E0.006
G1 X70.32 Y138.473 E0.007
G1 X70.418 Y138.729 E0.007
G1 X70.555 Y138.966 E0.007
G1 X70.728 Y139.179 E0.007
G1 X70.957 Y139.375 E0.007
G1 X71.164 Y139.506 E0.006
G1 X71.415 Y139.613 E0.007
G1 X71.682 Y139.679 E0.007
G1 X71.954 Y139.701 E0.007
G1 X72.229 Y139.679 E0.007
G1 X72.52 Y139.602 E0.007
G1 X72.744 Y139.506 E0.006
G1 X72.975 Y139.359 E0.007
G1 X73.181 Y139.178 E0.007
G1 X73.354 Y138.966 E0.007
G1 X73.491 Y138.728 E0.006
G1 X73.596 Y138.441 E0.008
G1 X73.635 Y138.255 E0.005
G1 X73.654 Y137.95 E0.007
G1 X73.619 Y137.656 E0.008
G1 X73.545 Y137.397 E0.007
G1 X73.427 Y137.15 E0.006
G1 X73.271 Y136.923 E0.007
G1 X73.059 Y136.709 E0.008
G1 X72.863 Y136.562 E0.006
G1 X72.62 Y136.435 E0.007
G1 X72.361 Y136.349 E0.007
G1 X72.09 Y136.305 E0.006
G1 X71.789 Y136.309 E0.008
G1 F2100 E-0.5
;rapid-dry
G0 X71.965 Y135.981 F7200
G1 F2100 E0.5
;bead-perimeter_outer
G1 X73.708 Y136.999 F1800 E0.05
G1 X73.705 Y137.638 E0.016
G1 X73.698 Y139.019 E0.035
G1 X71.944 Y140.019 E0.05
G1 X70.201 Y139.001 E0.05
G1 X70.21 Y136.982 E0.051
G1 X71.965 Y135.981 E0.05
G1 F2100 E-0.5
;rapid-dry
G0 Z0.7 F7200
G0 X71.078 Y129.55 F7200
G0 Z0.5 F7200
G1 F2100 E0.5
;bead-solid_infill
G1 X70.8 Y129.828 F1800 E0.01
G1 Y130.393 E0.014
G1 X71.643 Y129.55 E0.03
G1 X72.209 E0.014
G1 X71.077 Y130.682 E0.04
G1 X71.643 E0.014
G1 X72.775 Y129.55 E0.04
G1 X73.34 E0.014
G1 X72.208 Y130.682 E0.04
G1 X72.774 E0.014
G1 X73.906 Y129.55 E0.04
G1 X74.472 E0.014
G1 X73.34 Y130.682 E0.04
G1 X73.905 E0.014
G1 X75.037 Y129.55 E0.04
G1 X75.603 E0.014
G1 X74.471 Y130.682 E0.04
G1 X75.037 E0.014
G1 X76.083 Y129.636 E0.037
G1 Y130.202 E0.014
G1 X75.603 Y130.682 E0.017
G1 F2100 E-0.5
;rapid-dry
G0 Z0.7 F7200
G0 X75.814 Y123.682 F7200
G0 Z0.5 F7200
G1 F2100 E0.5
;bead-solid_infill
G1 X76.083 Y123.413 F1800 E0.01
G1 Y122.848 E0.014
G1 X75.249 Y123.682 E0.029
G1 X74.683 E0.014
G1 X75.815 Y122.55 E0.04
G1 X75.249 E0.014
G1 X74.117 Y123.682 E0.04
G1 X73.552 E0.014
G1 X74.684 Y122.55 E0.04
G1 X74.118 E0.014
G1 X72.986 Y123.682 E0.04
G1 X72.42 E0.014
G1 X73.552 Y122.55 E0.04
G1 X72.987 E0.014
G1 X71.855 Y123.682 E0.04
G1 X71.289 E0.015
G1 X72.421 Y122.55 E0.039
G1 X71.855 E0.015
G1 X70.8 Y123.605 E0.037
G1 Y123.039 E0.014
G1 X71.289 Y122.55 E0.017
G1 F2100 E-0.5
;rapid-dry
G0 Z0.7 F7200
G0 X78.006 Y115.834 F7200
G0 Z0.5 F7200
G1 F2100 E0.5
;bead-solid_infill
G1 X79.084 Y114.756 F1800 E0.038
G1 X79.146 Y114.557 E0.005
G1 X79.185 Y114.341 E0.006
G1 X79.2 Y114.096 E0.006
G1 Y114.074 E0.001
G1 X77.324 Y115.95 E0.066
G1 X76.758 E0.014
G1 X79.2 Y113.508 E0.086
G1 Y112.942 E0.014
G1 X76.192 Y115.95 E0.106
G1 X75.941 E0.006
G1 X75.929 Y115.876 E0.002
G1 X75.845 Y115.732 E0.004
G1 X79.2 Y112.377 E0.119
G1 Y111.811 E0.014
G1 X75.586 Y115.425 E0.127
G1 X75.325 Y115.272 E0.008
G1 X75.195 Y115.25 E0.003
G1 X79.2 Y111.245 E0.142
G1 Y110.68 E0.014
G1 X74.567 Y115.313 E0.163
G1 X74.525 Y115.332 E0.001
G1 X74.449 Y115.368 E0.002
G1 X74.219 Y115.555 E0.008
G1 X74.05 Y115.83 E0.008
G1 X73.93 Y115.95 E0.004
G1 X73.364 E0.014
G1 X79.2 Y110.114 E0.206
G1 Y109.81 E0.008
G1 X79.007 Y109.788 E0.004
G1 X78.973 Y109.776 E0.001
G1 X72.798 Y115.95 E0.218
G1 X72.654 E0.004
G1 X72.409 Y115.935 E0.006
G1 X72.272 Y115.91 E0.003
G1 X78.598 Y109.584 E0.224
G1 X78.448 Y109.456 E0.005
G1 X78.342 Y109.275 E0.005
G1 X76.393 Y111.224 E0.068
G1 X76.414 Y111.34 E0.003
G1 X76.359 Y111.694 E0.009
G1 X76.234 Y111.88 E0.006
G1 X76.119 Y112.051 E0.005
G1 X75.798 Y112.239 E0.009
G1 X75.482 Y112.296 E0.008
G1 X75.342 Y112.274 E0.004
G1 X71.847 Y115.769 E0.123
G1 X71.781 Y115.74 E0.002
G1 X71.591 Y115.624 E0.006
G1 X71.531 Y115.577 E0.001
G1 X71.499 Y115.552 E0.001
G1 X74.934 Y112.118 E0.122
G1 X74.918 Y112.109
G1 X74.696 Y112.239 E0.007
G1 X74.38 Y112.296 E0.008
G1 X74.215 Y112.271 E0.004
G1 X71.214 Y115.272 E0.106
G1 X71.126 Y115.159 E0.003
G1 X71.01 Y114.969 E0.006
G1 X70.992 Y114.928 E0.001
G1 X73.813 Y112.107 E0.099
G1 X73.761 Y112.077 E0.002
G1 X73.541 Y111.813 E0.008
G1 X70.845 Y114.509 E0.096
G1 X70.815 Y114.341 E0.004
G1 X70.8 Y114.096 E0.006
G1 Y113.988 E0.003
G1 X73.424 Y111.364 E0.092
G1 X73.474 Y111.04 E0.008
G1 X73.617 Y110.79 E0.008
G1 X73.582 Y110.719 E0.001
G1 X73.565 Y110.657 E0.002
G1 X70.8 Y113.422 E0.098
G1 X70.801 Y112.857 E0.014
G1 X73.498 Y110.159 E0.095
G1 Y109.593 E0.014
G1 X70.801 Y112.291 E0.095
G1 Y111.725 E0.014
G1 X73.498 Y109.028 E0.095
G1 Y108.462 E0.015
G1 X70.801 Y111.159 E0.095
G1 X71.217 Y109.611 E0.04
G1 X70.802 Y110.027 E0.014
G1 Y110.593 E0.014
G1 X73.498 Y107.896 E0.096
G1 Y107.331 E0.014
G1 X71.37 Y109.458 E0.075
G1 X71.495 Y109.311 E0.004
G1 X71.6 Y109.01 E0.008
G1 X71.621 Y108.773 E0.006
G1 X71.602 Y108.661 E0.003
G1 X73.497 Y106.766 E0.067
G1 X73.436 Y106.658 E0.003
G1 X73.378 Y106.319 E0.009
G1 X71.446 Y108.251 E0.068
G1 X71.393 Y108.157 E0.003
G1 X71.165 Y107.967 E0.007
G1 X77.568 Y101.563 E0.226
G1 X77.346 Y101.55 E0.005
G1 X77.016 E0.009
G1 X70.803 Y107.763 E0.219
G1 Y107.197 E0.014
G1 X76.45 Y101.55 E0.199
G1 X75.95 E0.013
G1 X75.921 Y101.718 E0.004
G1 X75.729 Y102.029 E0.009
G1 X75.499 Y102.216 E0.007
G1 X75.283 Y102.317 E0.006
G1 X75.082 Y102.353 E0.005
G1 X70.803 Y106.631 E0.151
G1 X70.804 Y106.065 E0.015
G1 X74.582 Y102.287 E0.133
G1 X74.35 Y102.152 E0.007
G1 X74.25 Y102.053 E0.003
G1 X70.804 Y105.499 E0.122
G1 Y104.933 E0.014
G1 X74.023 Y101.714 E0.113
G1 X74.019 Y101.708
G1 X74.004 Y101.617 E0.003
G1 X73.992 Y101.55 E0.001
G1 X73.622 E0.01
G1 X70.805 Y104.367 E0.099
G1 Y103.801 E0.014
G1 X73.056 Y101.55 E0.08
G1 X72.654 E0.01
G1 X72.521 Y101.558 E0.003
G1 X72.48 Y101.56 E0.001
G1 X70.81 Y103.23 E0.059
G1 X70.815 Y103.159 E0.002
G1 X70.854 Y102.943 E0.005
G1 X70.909 Y102.769 E0.005
G1 X70.92 Y102.732 E0.001
G1 X70.952 Y102.662 E0.002
G1 X71.011 Y102.531 E0.003
G1 X71.113 Y102.362 E0.005
G1 X71.612 Y101.863 E0.018
G1 F2100 E-0.5
;rapid-dry
G0 Z0.7 F7200
G0 X76.231 Y110.82 F7200
G0 Z0.5 F7200
G1 F2100 E0.5
;bead-solid_infill
G1 X78.216 Y108.836 F1800 E0.07
G1 X78.211 Y108.808
G1 X78.271 Y108.459 E0.009
G1 X78.431 Y108.186 E0.008
G1 X78.606 Y108.011 E0.006
G1 X78.784 Y107.91 E0.005
G1 X78.88 Y107.855 E0.003
G1 X79.187 Y107.801 E0.008
G1 X79.2 Y107.802
G1 Y107.286 E0.013
